; generated by SuperSlicer 2.4 on 2024-06-04 at 13:30:37 UTC


;
;

;
;
; 

; external perimeters extrusion width = 0.42mm
; perimeters extrusion width = 0.44mm
; infill extrusion width = 0.45mm
; solid infill extrusion width = 0.45mm
; top infill extrusion width = 0.40mm
; first layer extrusion width = 0.42mm

; object:{"name":"Validation(3)","id":"Validation(3).stl id:0 copy 0","object_center":[67.500000,67.500000,0.000000],"boundingbox_center":[67.500000,67.500000,0.100000],"boundingbox_size":[44.167294,95.788681,0.200000]}
; plater:{"center":[67.500000,67.500000,0.000000],"boundingbox_center":[67.500000,67.500000,0.100000],"boundingbox_size":[44.167294,95.788681,0.200000]}

M73 P0 R0
M204 P1250 T1500 ; sets acceleration (P, T), mm/sec^2
;TYPE:Custom
SET_PRINT_STATS_INFO TOTAL_LAYER=1
M862.3 P "MK3S" ; printer model check
M862.1 P0.4 ; nozzle diameter check
M115 U3.10.1 ; tell printer latest fw version
G90 ; use absolute coordinates
M83 ; extruder relative mode
;M104 S0 ; set extruder temp
;M140 S0 ; set bed temp
;M190 S0 ; wait for bed temp
;M109 S0 ; wait for extruder temp
G28 W ; home all without mesh bed level
; G80 ; mesh bed leveling
;G1 Z0.2 F720
;G1 Y-3 F1000 ; go outside print area
;G92 E0
;G1 X60 E9 F1000 ; intro line
;G1 X100 E12.5 F1000 ; intro line
;G92 E0
M221 S100

; Don't change E values below. Excessive value can damage the printer.

M107
G21 ; set units to millimeters
G90 ; use absolute coordinates
M83 ; use relative distances for extrusion
M900 K0.05 ; Filament gcode LA 1.5
M900 K30 ; Filament gcode LA 1.0
;_TOOLCHANGE 0
M107
;LAYER_CHANGE
;Z:0.2
;HEIGHT:0.2
;BEFORE_LAYER_CHANGE
G92 E0.0
;0.2


G1 Z0.4 F720
;AFTER_LAYER_CHANGE
;0.2
SET_PRINT_STATS_INFO CURRENT_LAYER=1
G1 Z0.6
; printing object Validation(3).stl id:0 copy 0
M204 S800
M73 P53 R0
G1 X45.994 Y77.478 F10800
G1 Z0.2 F720
;TYPE:Thin wall
;WIDTH:0.666666
M73 P55 R0
G1 F1122
G1 X46.051 Y77.461 E0.03815
;WIDTH:0.625
G1 X46.109 Y77.444 E0.0356
;WIDTH:0.583333
G1 X46.167 Y77.428 E0.03305
;WIDTH:0.541667
G1 X46.225 Y77.411 E0.0305
;WIDTH:0.5
G1 X46.282 Y77.394 E0.02795
G1 X88.718 Y77.394 E19.73952
G1 X88.775 Y77.411 E0.02795
;WIDTH:0.541666
M73 P62 R0
G1 X88.833 Y77.428 E0.0305
;WIDTH:0.583332
G1 X88.891 Y77.444 E0.03305
;WIDTH:0.624999
G1 X88.949 Y77.461 E0.0356
;WIDTH:0.666665
G1 X89.006 Y77.478 E0.03815
G1 X88.992 Y77.536 E0.03815
;WIDTH:0.624998
G1 X88.977 Y77.594 E0.0356
;WIDTH:0.583331
G1 X88.963 Y77.653 E0.03305
;WIDTH:0.541663
G1 X88.949 Y77.711 E0.0305
;WIDTH:0.499996
M221 S200
G1 X88.934 Y77.769 E0.02795
G1 X67.717 Y114.519 E19.73935
G1 X67.673 Y114.561 E0.02795
;WIDTH:0.541663
M73 P68 R0
G1 X67.63 Y114.603 E0.0305
;WIDTH:0.58333
G1 X67.587 Y114.644 E0.03305
;WIDTH:0.624997
G1 X67.543 Y114.686 E0.0356
;WIDTH:0.666664
G1 X67.5 Y114.728 E0.03815
G1 X67.457 Y114.686 E0.03815
;WIDTH:0.624997
G1 X67.413 Y114.644 E0.0356
;WIDTH:0.58333
G1 X67.37 Y114.603 E0.03305
;WIDTH:0.541663
G1 X67.327 Y114.561 E0.0305
;WIDTH:0.499996
M221 S20
G1 X67.283 Y114.519 E0.02795
G1 X46.066 Y77.769 E19.73935
G1 X46.051 Y77.711 E0.02795
;WIDTH:0.541664
M73 P74 R0
G1 X46.037 Y77.653 E0.0305
;WIDTH:0.583331
G1 X46.023 Y77.594 E0.03305
;WIDTH:0.624999
G1 X46.008 Y77.536 E0.0356
M204 S1000
G1 Z0.6 F720
; acceleration to travel
M204 S1500
G1 X50.329 Y66.547 F10800
; decel to extrusion
M204 S800
G1 X45.981 Y57.467
; end travel
M73 P75 R0
G1 Z0.2 F720
;WIDTH:0.494388
G1 F1122
M221 S100
G1 X45.981 Y57.467 E0.03214
G1 X46.949 Y57.998 E0.50729
G1 X47.917 Y58.53 E0.50729
G1 X47.964 Y58.555 E0.02482
G1 X48.022 Y58.584 E0.02969
G1 X48.884 Y59.011 E0.44188
G1 X49.745 Y59.438 E0.44188
G1 X49.89 Y59.506 E0.07318
G1 X50.043 Y59.578 E0.07809
G1 X51.682 Y60.305 E0.82355
G1 X51.824 Y60.365 E0.07074
G1 X51.976 Y60.428 E0.07563
G1 X52.578 Y60.665 E0.29713
G1 X52.762 Y60.737 E0.06335
G1 X53.548 Y61.046 E0.38805
G1 X53.821 Y61.147 E0.13377
G1 X54.589 Y61.412 E0.37344
G1 X55.348 Y61.673 E0.36857
G1 X55.479 Y61.715 E0.06335
G1 X55.62 Y61.76 E0.0682
G1 X57.09 Y62.197 E0.7045
M73 P76 R0
G1 X57.345 Y62.267 E0.12118
G1 X58.07 Y62.45 E0.34372
G1 X58.785 Y62.63 E0.33889
G1 X58.909 Y62.658 E0.05819
G1 X59.042 Y62.688 E0.06301
G1 X59.742 Y62.833 E0.32809
G1 X60.441 Y62.978 E0.32809
G1 X60.561 Y63 E0.05623
G1 X60.692 Y63.024 E0.06103
G1 X61.378 Y63.136 E0.31945
G1 X62.064 Y63.248 E0.31945
G1 X62.182 Y63.265 E0.05467
G1 X62.31 Y63.283 E0.05946
G1 X62.986 Y63.364 E0.31276
M73 P77 R0
G1 X63.662 Y63.446 E0.31276
G1 X63.778 Y63.457 E0.05358
G1 X63.904 Y63.47 E0.05835
G1 X64.572 Y63.522 E0.30781
G1 X65.24 Y63.574 E0.30781
G1 X65.355 Y63.581 E0.0529
G1 X65.48 Y63.588 E0.05766
G1 X66.143 Y63.612 E0.30457
G1 X66.805 Y63.636 E0.30457
G1 X66.92 Y63.638 E0.05252
G1 X67.044 Y63.64 E0.05726
G1 X67.619 Y63.637 E0.26426
G1 X68.195 Y63.635 E0.26426
G1 X68.392 Y63.63 E0.09079
G1 X68.6 Y63.625 E0.09549
G1 X69.175 Y63.599 E0.26427
G1 X69.749 Y63.574 E0.26427
G1 X69.947 Y63.561 E0.09132
M73 P78 R0
G1 X70.146 Y63.548 E0.09132
G1 X70.731 Y63.498 E0.26987
G1 X71.306 Y63.448 E0.26518
G1 X71.506 Y63.427 E0.09218
G1 X71.715 Y63.404 E0.09685
G1 X72.871 Y63.257 E0.53525
G1 X73.072 Y63.227 E0.09342
G1 X73.283 Y63.195 E0.09807
G1 X73.866 Y63.096 E0.27157
G1 X74.448 Y62.998 E0.27157
G1 X74.652 Y62.959 E0.09505
G1 X74.855 Y62.92 E0.09505
G1 X75.455 Y62.793 E0.28174
G1 X76.045 Y62.668 E0.27711
G1 X76.251 Y62.62 E0.09714
G1 X76.466 Y62.569 E0.10175
M73 P79 R0
G1 X77.666 Y62.263 E0.56869
G1 X77.875 Y62.205 E0.09968
G1 X78.084 Y62.148 E0.09968
G1 X78.705 Y61.962 E0.29794
G1 X79.317 Y61.779 E0.29335
G1 X79.53 Y61.711 E0.10279
G1 X79.752 Y61.639 E0.10737
G1 X80.379 Y61.424 E0.30421
G1 X81.005 Y61.209 E0.30421
G1 X81.44 Y61.05 E0.21317
G1 X82.093 Y60.796 E0.32165
G1 X82.736 Y60.545 E0.31709
G1 X82.96 Y60.453 E0.11123
G1 X83.193 Y60.357 E0.11577
M73 P80 R0
G1 X83.856 Y60.068 E0.33236
G1 X84.519 Y59.778 E0.33237
G1 X84.749 Y59.672 E0.11667
G1 X84.989 Y59.562 E0.12119
G1 X86.362 Y58.896 E0.70094
G1 X86.6 Y58.775 E0.12292
G1 X86.838 Y58.653 E0.12292
G1 X87.558 Y58.268 E0.37508
G1 X88.268 Y57.886 E0.37028
G1 X88.644 Y57.677 E0.19757
G1 X89.02 Y57.469 E0.19757
G1 X89.076 Y57.426 E0.03237
;WIDTH:0.534805
G1 X89.132 Y57.384 E0.03527
;WIDTH:0.534803
M73 P81 R0
G1 X89.141 Y57.314 E0.03527
;WIDTH:0.497979
M221 S200
G1 X89.149 Y57.244 E0.03263
G1 X89.142 Y56.814 E0.19914
G1 X89.135 Y56.384 E0.19914
G1 X89.11 Y55.578 E0.37323
G1 X89.085 Y54.773 E0.37323
G1 X89.071 Y54.495 E0.12873
G1 X89.057 Y54.228 E0.1239
G1 X89.002 Y53.467 E0.35326
G1 X88.946 Y52.697 E0.35782
G1 X88.899 Y52.191 E0.23519
G1 X88.818 Y51.472 E0.33501
G1 X88.737 Y50.753 E0.33501
G1 X88.704 Y50.503 E0.11669
G1 X88.672 Y50.263 E0.11212
M73 P82 R0
G1 X88.567 Y49.581 E0.3196
G1 X88.463 Y48.899 E0.3196
G1 X88.421 Y48.661 E0.11203
G1 X88.381 Y48.432 E0.10743
G1 X88.255 Y47.783 E0.30664
G1 X88.126 Y47.123 E0.31125
G1 X88.078 Y46.904 E0.10361
G1 X88.031 Y46.686 E0.10361
G1 X87.884 Y46.064 E0.29567
G1 X87.734 Y45.434 E0.3003
G1 X87.625 Y45.014 E0.20094
G1 X87.29 Y43.822 E0.57322
G1 X87.226 Y43.61 E0.10256
G1 X87.165 Y43.408 E0.09791
M73 P83 R0
G1 X86.791 Y42.261 E0.55863
G1 X86.72 Y42.056 E0.10048
G1 X86.652 Y41.86 E0.09581
G1 X86.446 Y41.306 E0.27373
G1 X86.241 Y40.752 E0.27373
G1 X86.162 Y40.553 E0.09883
G1 X86.088 Y40.364 E0.09415
G1 X85.863 Y39.827 E0.26974
G1 X85.638 Y39.29 E0.26974
G1 X85.552 Y39.097 E0.09764
G1 X85.471 Y38.914 E0.09294
G1 X85.226 Y38.391 E0.26729
G1 X84.977 Y37.859 E0.27201
G1 X84.889 Y37.681 E0.09203
G1 X84.801 Y37.502 E0.09203
G1 X84.536 Y36.992 E0.26638
G1 X84.266 Y36.473 E0.27112
M73 P84 R0
G1 X84.172 Y36.299 E0.09152
G1 X84.077 Y36.126 E0.09152
G1 X83.792 Y35.626 E0.26636
G1 X83.506 Y35.127 E0.26636
G1 X83.442 Y35.02 E0.05771
G1 X83.383 Y34.922 E0.05294
G1 X83.031 Y34.36 E0.307
G1 X82.674 Y33.79 E0.31179
G1 X82.611 Y33.694 E0.05332
G1 X82.547 Y33.597 E0.05332
G1 X82.168 Y33.045 E0.31025
G1 X81.789 Y32.493 E0.31025
G1 X81.715 Y32.39 E0.05881
G1 X81.647 Y32.295 E0.05401
G1 X81.239 Y31.75 E0.31524
G1 X80.83 Y31.206 E0.31524
G1 X80.751 Y31.104 E0.05993
M73 P85 R0
G1 X80.677 Y31.01 E0.05511
G1 X79.797 Y29.934 E0.644
G1 X79.711 Y29.832 E0.06151
G1 X79.631 Y29.739 E0.05667
G1 X79.156 Y29.206 E0.3307
G1 X78.681 Y28.673 E0.3307
G1 X78.588 Y28.572 E0.06352
G1 X78.502 Y28.48 E0.05866
G1 X77.988 Y27.95 E0.34159
G1 X77.475 Y27.421 E0.34159
G1 X77.374 Y27.32 E0.06593
G1 X77.28 Y27.228 E0.06106
G1 X76.723 Y26.701 E0.35504
G1 X76.167 Y26.173 E0.35504
G1 X76.057 Y26.074 E0.06875
M73 P86 R0
G1 X75.955 Y25.981 E0.06386
G1 X75.349 Y25.455 E0.37151
G1 X74.744 Y24.929 E0.37151
G1 X74.624 Y24.829 E0.07232
G1 X74.512 Y24.735 E0.06741
G1 X73.19 Y23.683 E0.78226
G1 X73.06 Y23.583 E0.07624
G1 X72.937 Y23.49 E0.07131
G1 X72.213 Y22.962 E0.41504
G1 X71.488 Y22.435 E0.41504
G1 X71.349 Y22.338 E0.07872
G1 X71.218 Y22.247 E0.07377
G1 X69.617 Y21.181 E0.89078
G1 X69.562 Y21.146 E0.02992
M73 P87 R0
G1 X69.517 Y21.117 E0.02501
G1 X68.573 Y20.545 E0.51133
G1 X67.629 Y19.972 E0.51133
G1 X67.563 Y19.944 E0.03284
M221 S20
;WIDTH:0.533801
G1 X67.498 Y19.916 E0.03542
G1 X67.436 Y19.942 E0.03352
;WIDTH:0.49795
G1 X67.374 Y19.968 E0.03107
G1 X67.242 Y20.046 E0.07127
G1 X67.104 Y20.127 E0.07383
G1 X66.868 Y20.269 E0.1277
G1 X66.631 Y20.411 E0.1277
G1 X65.947 Y20.836 E0.37336
G1 X65.262 Y21.262 E0.37336
G1 X65.029 Y21.413 E0.1284
G1 X64.805 Y21.559 E0.12388
G1 X64.173 Y21.987 E0.35325
M73 P88 R0
G1 X63.534 Y22.42 E0.35781
G1 X63.327 Y22.567 E0.1176
G1 X63.119 Y22.714 E0.1176
G1 X62.537 Y23.143 E0.33497
G1 X61.955 Y23.573 E0.33497
G1 X61.756 Y23.726 E0.11669
G1 X61.564 Y23.874 E0.11211
G1 X61.025 Y24.306 E0.31958
G1 X60.487 Y24.738 E0.31958
G1 X60.301 Y24.893 E0.11202
G1 X60.123 Y25.041 E0.10743
G1 X59.624 Y25.476 E0.30662
G1 X59.117 Y25.918 E0.31123
G1 X58.786 Y26.218 E0.20718
M73 P89 R0
G1 X58.322 Y26.657 E0.29566
G1 X57.85 Y27.102 E0.3003
G1 X57.696 Y27.254 E0.10047
G1 X57.541 Y27.406 E0.10047
G1 X57.109 Y27.849 E0.28658
G1 X56.676 Y28.292 E0.28658
G1 X56.525 Y28.453 E0.10256
G1 X56.38 Y28.608 E0.09791
G1 X55.977 Y29.056 E0.2793
G1 X55.573 Y29.504 E0.2793
G1 X55.432 Y29.669 E0.10047
G1 X55.296 Y29.825 E0.0958
G1 X54.919 Y30.28 E0.27372
G1 X54.542 Y30.736 E0.27372
G1 X54.41 Y30.903 E0.09883
G1 X54.283 Y31.062 E0.09414
M73 P90 R0
G1 X53.577 Y31.989 E0.53947
G1 X53.453 Y32.159 E0.09763
G1 X53.335 Y32.321 E0.09292
G1 X53.005 Y32.795 E0.26727
G1 X52.668 Y33.276 E0.27199
G1 X52.558 Y33.441 E0.09203
G1 X52.448 Y33.607 E0.09203
G1 X52.138 Y34.092 E0.26636
G1 X51.823 Y34.585 E0.27109
G1 X51.72 Y34.754 E0.09151
G1 X51.618 Y34.923 E0.09151
G1 X51.328 Y35.419 E0.26634
G1 X51.038 Y35.916 E0.26634
G1 X50.978 Y36.025 E0.05771
G1 X50.922 Y36.125 E0.05294
G1 X50.612 Y36.711 E0.30699
G1 X50.296 Y37.306 E0.31177
M73 P91 R0
G1 X50.245 Y37.409 E0.05332
G1 X50.193 Y37.511 E0.05332
G1 X49.615 Y38.72 E0.62046
G1 X49.563 Y38.836 E0.05881
G1 X49.515 Y38.942 E0.054
G1 X48.98 Y40.194 E0.63044
G1 X48.932 Y40.314 E0.05993
G1 X48.887 Y40.425 E0.05511
G1 X48.641 Y41.075 E0.32199
G1 X48.395 Y41.725 E0.32198
G1 X48.351 Y41.851 E0.06151
G1 X48.31 Y41.966 E0.05667
G1 X48.085 Y42.644 E0.33067
G1 X47.861 Y43.322 E0.33067
G1 X47.821 Y43.453 E0.06352
M73 P92 R0
G1 X47.784 Y43.574 E0.05866
G1 X47.38 Y44.993 E0.68314
G1 X47.344 Y45.13 E0.06593
G1 X47.31 Y45.258 E0.06106
G1 X47.132 Y46.004 E0.35503
G1 X46.954 Y46.749 E0.35503
G1 X46.922 Y46.894 E0.06874
G1 X46.893 Y47.029 E0.06385
G1 X46.587 Y48.604 E0.74296
G1 X46.561 Y48.758 E0.07231
G1 X46.536 Y48.901 E0.06741
G1 X46.411 Y49.737 E0.3911
G1 X46.285 Y50.572 E0.3911
G1 X46.264 Y50.735 E0.07625
M73 P93 R0
G1 X46.245 Y50.888 E0.07131
G1 X46.15 Y51.779 E0.41502
G1 X46.055 Y52.67 E0.41502
G1 X46.041 Y52.84 E0.07871
G1 X46.027 Y52.998 E0.07376
G1 X45.966 Y53.958 E0.44536
G1 X45.905 Y54.918 E0.44536
G1 X45.902 Y54.982 E0.02992
G1 X45.9 Y55.036 E0.025
G1 X45.876 Y56.14 E0.5113
G1 X45.852 Y57.244 E0.5113
G1 X45.861 Y57.314 E0.03239
;WIDTH:0.532747
M73 P94 R0
G1 X45.869 Y57.383 E0.03487
G1 X45.925 Y57.425 E0.03487
;WIDTH:0.494388
M221 S100

M204 S1000
G1 Z0.6 F720
; stop printing object Validation(3).stl id:0 copy 0
M107
;TYPE:Custom
; Filament-specific end gcode
; total layers count = 1
G4 ; wait
M221 S100 ; reset flow
M900 K0 ; reset LA

;M104 S0 ; turn off temperature
;M140 S0 ; turn off heatbed
M107 ; turn off fan
G1 Z5.2 ; Move print head up
G1 X0 Y100 F3000 ; home X axis
M84 ; disable motors
M73 P100 R0
; filament used [mm] = 123.31
; filament used [cm3] = 0.02
; filament used [g] = 0.03
; filament cost = 0.00
; total filament used [g] = 0.03
; total filament cost = 0.00
; total layers count = 1
; estimated printing time (normal mode) = 37s

; SuperSlicer_config = begin
; allow_empty_layers = 0
; avoid_crossing_not_first_layer = 1
; avoid_crossing_perimeters = 0
; avoid_crossing_perimeters_max_detour = 0
; bed_custom_model = 
; bed_custom_texture = 
; bed_shape = 0x0,135x0,135x135,0x135
; bed_temperature = 0
; before_layer_gcode = ;BEFORE_LAYER_CHANGE\nG92 E0.0\n;[layer_z]\n\n
; between_objects_gcode = 
; bottom_fill_pattern = monotonic
; bottom_solid_layers = 4
; bottom_solid_min_thickness = 0.5
; bridge_acceleration = 1000
; bridge_angle = 0
; bridge_fan_speed = 100
; bridge_flow_ratio = 95%
; bridge_internal_acceleration = 0
; bridge_internal_fan_speed = -1
; bridge_overlap = 75%
; bridge_overlap_min = 60%
; bridge_speed = 25
; bridge_speed_internal = 150%
; bridge_type = flow
; bridged_infill_margin = 200%
; brim_acceleration = 0
; brim_ears = 0
; brim_ears_detection_length = 1
; brim_ears_max_angle = 125
; brim_ears_pattern = concentric
; brim_inside_holes = 0
; brim_separation = 0.1
; brim_speed = 50%
; brim_width = 0
; brim_width_interior = 0
; chamber_temperature = 0
; clip_multipart_objects = 1
; color_change_gcode = M600\nG1 E0.4 F1500 ; prime after color change
; compatible_printers_condition_cummulative = "printer_notes=~/.*PRINTER_VENDOR_PRUSA3D.*/ and printer_notes=~/.*PRINTER_MODEL_MK3.*/ and nozzle_diameter[0]==0.4";"nozzle_diameter[0]!=0.8 and ! (printer_notes=~/.*PRINTER_VENDOR_PRUSA3D.*/ and printer_notes=~/.*PRINTER_MODEL_MK(2.5|3).*/ and single_extruder_multi_material)"
; complete_objects = 0
; complete_objects_one_brim = 0
; complete_objects_one_skirt = 0
; complete_objects_sort = object
; cooling_tube_length = 5
; cooling_tube_retraction = 91.5
; curve_smoothing_angle_concave = 0
; curve_smoothing_angle_convex = 0
; curve_smoothing_cutoff_dist = 2
; curve_smoothing_precision = 0
; default_acceleration = 1000
; default_filament_profile = "Prusament PLA"
; default_print_profile = 0.15mm QUALITY @MK3
; default_speed = 100
; deretract_speed = 0
; disable_fan_first_layers = 1
; dont_support_bridges = 0
; draft_shield = disabled
; duplicate_distance = 6
; end_filament_gcode = "; Filament-specific end gcode"
; end_gcode = ; total layers count = [total_layer_count]\nG4 ; wait\nM221 S100 ; reset flow\nM900 K0 ; reset LA\n{if print_settings_id=~/.*(DETAIL @MK3|QUALITY @MK3|@0.25 nozzle MK3).*/}M907 E538 ; reset extruder motor current{endif}\n;M104 S0 ; turn off temperature\n;M140 S0 ; turn off heatbed\nM107 ; turn off fan\n{if max_layer_z < max_print_height}G1 Z{z_offset+min(max_layer_z+5, max_print_height)}{endif} ; Move print head up\nG1 X0 Y100 F3000 ; home X axis\nM84 ; disable motors
; enforce_full_fill_volume = 1
; enforce_retract_first_layer = 1
; ensure_vertical_shell_thickness = 1
; exact_last_layer_height = 0
; external_infill_margin = 150%
; external_perimeter_acceleration = 0
; external_perimeter_cut_corners = 0%
; external_perimeter_extrusion_spacing = 0.4
; external_perimeter_extrusion_width = 
; external_perimeter_fan_speed = -1
; external_perimeter_overlap = 100%
; external_perimeter_speed = 25
; external_perimeters_first = 0
; external_perimeters_hole = 1
; external_perimeters_nothole = 1
; external_perimeters_vase = 0
; extra_loading_move = -2
; extra_perimeters = 0
; extra_perimeters_odd_layers = 0
; extra_perimeters_overhangs = 0
; extruder_clearance_height = 20
; extruder_clearance_radius = 45
; extruder_colour = ""
; extruder_fan_offset = 0%
; extruder_offset = 0x0
; extruder_temperature_offset = 0
; extrusion_axis = E
