; generated by SuperSlicer 2.4 on 2024-02-06 at 16:41:55 UTC


;
;

;
;
; 

; external perimeters extrusion width = 0.45mm
; perimeters extrusion width = 0.47mm
; infill extrusion width = 0.45mm
; solid infill extrusion width = 0.45mm
; top infill extrusion width = 0.40mm
; first layer extrusion width = 0.42mm

; external perimeters extrusion width = 0.45mm
; perimeters extrusion width = 0.47mm
; infill extrusion width = 0.45mm
; solid infill extrusion width = 0.45mm
; top infill extrusion width = 0.40mm
; first layer extrusion width = 0.42mm

; external perimeters extrusion width = 0.45mm
; perimeters extrusion width = 0.47mm
; infill extrusion width = 0.45mm
; solid infill extrusion width = 0.45mm
; top infill extrusion width = 0.40mm
; first layer extrusion width = 0.42mm

; external perimeters extrusion width = 0.45mm
; perimeters extrusion width = 0.47mm
; infill extrusion width = 0.45mm
; solid infill extrusion width = 0.45mm
; top infill extrusion width = 0.40mm
; first layer extrusion width = 0.42mm

; external perimeters extrusion width = 0.45mm
; perimeters extrusion width = 0.47mm
; infill extrusion width = 0.45mm
; solid infill extrusion width = 0.45mm
; top infill extrusion width = 0.40mm
; first layer extrusion width = 0.42mm

; external perimeters extrusion width = 0.45mm
; perimeters extrusion width = 0.47mm
; infill extrusion width = 0.45mm
; solid infill extrusion width = 0.45mm
; top infill extrusion width = 0.40mm
; first layer extrusion width = 0.42mm

; external perimeters extrusion width = 0.45mm
; perimeters extrusion width = 0.47mm
; infill extrusion width = 0.45mm
; solid infill extrusion width = 0.45mm
; top infill extrusion width = 0.40mm
; first layer extrusion width = 0.42mm

; external perimeters extrusion width = 0.45mm
; perimeters extrusion width = 0.47mm
; infill extrusion width = 0.45mm
; solid infill extrusion width = 0.45mm
; top infill extrusion width = 0.40mm
; first layer extrusion width = 0.42mm

; external perimeters extrusion width = 0.45mm
; perimeters extrusion width = 0.47mm
; infill extrusion width = 0.45mm
; solid infill extrusion width = 0.45mm
; top infill extrusion width = 0.40mm
; first layer extrusion width = 0.42mm

; external perimeters extrusion width = 0.45mm
; perimeters extrusion width = 0.47mm
; infill extrusion width = 0.45mm
; solid infill extrusion width = 0.45mm
; top infill extrusion width = 0.40mm
; first layer extrusion width = 0.42mm

; external perimeters extrusion width = 0.45mm
; perimeters extrusion width = 0.47mm
; infill extrusion width = 0.45mm
; solid infill extrusion width = 0.45mm
; top infill extrusion width = 0.40mm
; first layer extrusion width = 0.42mm

; external perimeters extrusion width = 0.45mm
; perimeters extrusion width = 0.47mm
; infill extrusion width = 0.45mm
; solid infill extrusion width = 0.45mm
; top infill extrusion width = 0.40mm
; first layer extrusion width = 0.42mm

; external perimeters extrusion width = 0.45mm
; perimeters extrusion width = 0.47mm
; infill extrusion width = 0.45mm
; solid infill extrusion width = 0.45mm
; top infill extrusion width = 0.40mm
; first layer extrusion width = 0.42mm

; external perimeters extrusion width = 0.45mm
; perimeters extrusion width = 0.47mm
; infill extrusion width = 0.45mm
; solid infill extrusion width = 0.45mm
; top infill extrusion width = 0.40mm
; first layer extrusion width = 0.42mm

; external perimeters extrusion width = 0.45mm
; perimeters extrusion width = 0.47mm
; infill extrusion width = 0.45mm
; solid infill extrusion width = 0.45mm
; top infill extrusion width = 0.40mm
; first layer extrusion width = 0.42mm

; external perimeters extrusion width = 0.45mm
; perimeters extrusion width = 0.47mm
; infill extrusion width = 0.45mm
; solid infill extrusion width = 0.45mm
; top infill extrusion width = 0.40mm
; first layer extrusion width = 0.42mm

; external perimeters extrusion width = 0.45mm
; perimeters extrusion width = 0.47mm
; infill extrusion width = 0.45mm
; solid infill extrusion width = 0.45mm
; top infill extrusion width = 0.40mm
; first layer extrusion width = 0.42mm

; external perimeters extrusion width = 0.45mm
; perimeters extrusion width = 0.47mm
; infill extrusion width = 0.45mm
; solid infill extrusion width = 0.45mm
; top infill extrusion width = 0.40mm
; first layer extrusion width = 0.42mm

; external perimeters extrusion width = 0.45mm
; perimeters extrusion width = 0.47mm
; infill extrusion width = 0.45mm
; solid infill extrusion width = 0.45mm
; top infill extrusion width = 0.40mm
; first layer extrusion width = 0.42mm

; external perimeters extrusion width = 0.45mm
; perimeters extrusion width = 0.47mm
; infill extrusion width = 0.45mm
; solid infill extrusion width = 0.45mm
; top infill extrusion width = 0.40mm
; first layer extrusion width = 0.42mm

; external perimeters extrusion width = 0.45mm
; perimeters extrusion width = 0.47mm
; infill extrusion width = 0.45mm
; solid infill extrusion width = 0.45mm
; top infill extrusion width = 0.40mm
; first layer extrusion width = 0.42mm

; external perimeters extrusion width = 0.45mm
; perimeters extrusion width = 0.47mm
; infill extrusion width = 0.45mm
; solid infill extrusion width = 0.45mm
; top infill extrusion width = 0.40mm
; first layer extrusion width = 0.42mm

; external perimeters extrusion width = 0.45mm
; perimeters extrusion width = 0.47mm
; infill extrusion width = 0.45mm
; solid infill extrusion width = 0.45mm
; top infill extrusion width = 0.40mm
; first layer extrusion width = 0.42mm

; external perimeters extrusion width = 0.45mm
; perimeters extrusion width = 0.47mm
; infill extrusion width = 0.45mm
; solid infill extrusion width = 0.45mm
; top infill extrusion width = 0.40mm
; first layer extrusion width = 0.42mm

; external perimeters extrusion width = 0.45mm
; perimeters extrusion width = 0.47mm
; infill extrusion width = 0.45mm
; solid infill extrusion width = 0.45mm
; top infill extrusion width = 0.40mm
; first layer extrusion width = 0.42mm

; external perimeters extrusion width = 0.45mm
; perimeters extrusion width = 0.47mm
; infill extrusion width = 0.45mm
; solid infill extrusion width = 0.45mm
; top infill extrusion width = 0.40mm
; first layer extrusion width = 0.42mm

; object:{"name":"Big Test","id":"Big Test.stl_26 id:0 copy 0","object_center":[30.000000,103.748302,0.000000],"boundingbox_center":[30.000000,103.748302,0.100000],"boundingbox_size":[9.999741,9.988598,0.200000]}
; object:{"name":"Big Test","id":"Big Test.stl_24 id:1 copy 0","object_center":[30.000000,103.751337,0.000000],"boundingbox_center":[30.000000,103.751337,0.100000],"boundingbox_size":[14.987778,14.997335,0.200000]}
; object:{"name":"Big Test","id":"Big Test.stl_14 id:2 copy 0","object_center":[30.000002,103.751001,0.000000],"boundingbox_center":[30.000002,103.751001,0.100000],"boundingbox_size":[19.980799,19.997999,0.200000]}
; object:{"name":"Big Test","id":"Big Test.stl_10 id:3 copy 0","object_center":[55.000000,103.748302,0.000000],"boundingbox_center":[55.000000,103.748302,0.100000],"boundingbox_size":[9.999741,9.988598,0.200000]}
; object:{"name":"Big Test","id":"Big Test.stl_12 id:4 copy 0","object_center":[55.000000,103.751337,0.000000],"boundingbox_center":[55.000000,103.751337,0.100000],"boundingbox_size":[14.987778,14.997335,0.200000]}
; object:{"name":"Big Test","id":"Big Test.stl_23 id:5 copy 0","object_center":[55.000000,103.751001,0.000000],"boundingbox_center":[55.000000,103.751001,0.100000],"boundingbox_size":[19.980801,19.997999,0.200000]}
; object:{"name":"Big Test","id":"Big Test.stl_1 id:6 copy 0","object_center":[30.000000,78.748302,0.000000],"boundingbox_center":[30.000000,78.748302,0.100000],"boundingbox_size":[9.999741,9.988598,0.200000]}
; object:{"name":"Big Test","id":"Big Test.stl_5 id:7 copy 0","object_center":[30.000000,78.751334,0.000000],"boundingbox_center":[30.000000,78.751334,0.100000],"boundingbox_size":[14.987778,14.997332,0.200000]}
; object:{"name":"Big Test","id":"Big Test.stl_25 id:8 copy 0","object_center":[30.000002,78.751002,0.000000],"boundingbox_center":[30.000002,78.751002,0.100000],"boundingbox_size":[19.980799,19.998000,0.200000]}
; object:{"name":"Big Test","id":"Big Test.stl_3 id:9 copy 0","object_center":[55.000000,78.748302,0.000000],"boundingbox_center":[55.000000,78.748302,0.100000],"boundingbox_size":[9.999741,9.988598,0.200000]}
; object:{"name":"Big Test","id":"Big Test.stl_15 id:10 copy 0","object_center":[55.000000,78.751334,0.000000],"boundingbox_center":[55.000000,78.751334,0.100000],"boundingbox_size":[14.987778,14.997332,0.200000]}
; object:{"name":"Big Test","id":"Big Test.stl_8 id:11 copy 0","object_center":[55.000000,78.751002,0.000000],"boundingbox_center":[55.000000,78.751002,0.100000],"boundingbox_size":[19.980801,19.998000,0.200000]}
; object:{"name":"Big Test","id":"Big Test.stl_11 id:12 copy 0","object_center":[80.000000,103.750000,0.000000],"boundingbox_center":[80.000000,103.750000,0.100000],"boundingbox_size":[10.000000,10.000000,0.200000]}
; object:{"name":"Big Test","id":"Big Test.stl_21 id:13 copy 0","object_center":[80.000000,103.750004,0.000000],"boundingbox_center":[80.000000,103.750004,0.100000],"boundingbox_size":[15.000000,15.000004,0.200000]}
; object:{"name":"Big Test","id":"Big Test.stl_9 id:14 copy 0","object_center":[80.000000,103.750002,0.000000],"boundingbox_center":[80.000000,103.750002,0.100000],"boundingbox_size":[20.000000,19.999998,0.200000]}
; object:{"name":"Big Test","id":"Big Test.stl_4 id:15 copy 0","object_center":[105.000000,103.750000,0.000000],"boundingbox_center":[105.000000,103.750000,0.100000],"boundingbox_size":[10.000000,10.000000,0.200000]}
; object:{"name":"Big Test","id":"Big Test.stl_6 id:16 copy 0","object_center":[105.000000,103.750004,0.000000],"boundingbox_center":[105.000000,103.750004,0.100000],"boundingbox_size":[15.000000,15.000004,0.200000]}
; object:{"name":"Big Test","id":"Big Test.stl_22 id:17 copy 0","object_center":[105.000000,103.750002,0.000000],"boundingbox_center":[105.000000,103.750002,0.100000],"boundingbox_size":[20.000000,19.999998,0.200000]}
; object:{"name":"Big Test","id":"Big Test.stl_17 id:18 copy 0","object_center":[80.000000,78.750001,0.000000],"boundingbox_center":[80.000000,78.750001,0.100000],"boundingbox_size":[10.000000,10.000001,0.200000]}
; object:{"name":"Big Test","id":"Big Test.stl_13 id:19 copy 0","object_center":[80.000000,78.750000,0.000000],"boundingbox_center":[80.000000,78.750000,0.100000],"boundingbox_size":[15.000000,14.999999,0.200000]}
; object:{"name":"Big Test","id":"Big Test.stl_7 id:20 copy 0","object_center":[80.000000,78.750001,0.000000],"boundingbox_center":[80.000000,78.750001,0.100000],"boundingbox_size":[20.000000,20.000001,0.200000]}
; object:{"name":"Big Test","id":"Big Test.stl_16 id:21 copy 0","object_center":[105.000000,78.750001,0.000000],"boundingbox_center":[105.000000,78.750001,0.100000],"boundingbox_size":[10.000000,10.000001,0.200000]}
; object:{"name":"Big Test","id":"Big Test.stl_19 id:22 copy 0","object_center":[105.000000,78.750000,0.000000],"boundingbox_center":[105.000000,78.750000,0.100000],"boundingbox_size":[15.000000,14.999999,0.200000]}
; object:{"name":"Big Test","id":"Big Test.stl_20 id:23 copy 0","object_center":[105.000000,78.750001,0.000000],"boundingbox_center":[105.000000,78.750001,0.100000],"boundingbox_size":[20.000000,20.000001,0.200000]}
; object:{"name":"Big Test","id":"Big Test.stl_2 id:24 copy 0","object_center":[67.500000,53.750001,0.000000],"boundingbox_center":[67.500000,53.750001,0.100000],"boundingbox_size":[95.000000,15.000000,0.200000]}
; object:{"name":"Big Test","id":"Big Test.stl_18 id:25 copy 0","object_center":[67.500000,28.750002,0.000000],"boundingbox_center":[67.500000,28.750002,0.100000],"boundingbox_size":[95.000000,15.000002,0.200000]}
; plater:{"center":[67.500000,67.500001,0.000000],"boundingbox_center":[67.500000,67.500001,0.100000],"boundingbox_size":[95.000000,92.500000,0.200000]}

M73 P0 R8
M204 P1250 T1500 ; sets acceleration (P, T), mm/sec^2
;TYPE:Custom
SET_PRINT_STATS_INFO TOTAL_LAYER=26
M862.3 P "MK3S" ; printer model check
M862.1 P0.4 ; nozzle diameter check
M115 U3.10.1 ; tell printer latest fw version
G90 ; use absolute coordinates
M83 ; extruder relative mode
;M104 S0 ; set extruder temp
;M140 S0 ; set bed temp
;M190 S0 ; wait for bed temp
;M109 S0 ; wait for extruder temp
G28 W ; home all without mesh bed level
; G80 ; mesh bed leveling
;G1 Z0.2 F720
;G1 Y-3 F1000 ; go outside print area
;G92 E0
;G1 X60 E9 F1000 ; intro line
;G1 X100 E12.5 F1000 ; intro line
;G92 E0
M221 S95

; Don't change E values below. Excessive value can damage the printer.

M107
G21 ; set units to millimeters
G90 ; use absolute coordinates
M83 ; use relative distances for extrusion
M900 K0.05 ; Filament gcode LA 1.5
M900 K30 ; Filament gcode LA 1.0
;_TOOLCHANGE 0
M107
;LAYER_CHANGE
;Z:0.2
;HEIGHT:0.2
;BEFORE_LAYER_CHANGE
G92 E0.0
;0.2


G1 Z0.4 F720
;AFTER_LAYER_CHANGE
;0.2
SET_PRINT_STATS_INFO CURRENT_LAYER=1
G1 Z0.6
; printing object Big Test.stl_26 id:0 copy 0
M204 S800
M73 P4 R7
G1 X30.323 Y98.936 F10800
G1 Z0.2 F720
;TYPE:Thin wall
;WIDTH:0.259453
G1 F900
G1 X30.342 Y98.938 E0.0038
G1 X30.445 Y98.947 E0.02008
;WIDTH:0.400002
M221 S50
G1 X30.492 Y98.951 E0.01709
G1 X30.712 Y99 E0.08199
G1 X30.751 Y99.011 E0.01469
G1 X30.987 Y99.06 E0.08756
G1 X31.223 Y99.109 E0.08756
G1 X31.248 Y99.116 E0.00958
G1 X31.484 Y99.193 E0.09007
G1 X31.72 Y99.269 E0.09007
G1 X31.744 Y99.279 E0.00937
G1 X31.97 Y99.381 E0.09018
G1 X32.196 Y99.482 E0.09018
G1 X32.219 Y99.495 E0.00916
G1 X32.433 Y99.62 E0.09028
G1 X32.647 Y99.746 E0.09028
G1 X32.667 Y99.76 E0.00894
G1 X32.867 Y99.909 E0.09039
G1 X33.066 Y100.057 E0.09039
G1 X33.084 Y100.073 E0.00874
G1 X33.449 Y100.412 E0.18099
G1 X33.465 Y100.43 E0.00852
G1 X33.628 Y100.618 E0.0906
G1 X33.791 Y100.807 E0.0906
G1 X33.805 Y100.825 E0.00831
G1 X33.947 Y101.03 E0.09071
G1 X34.088 Y101.236 E0.09071
G1 X34.1 Y101.255 E0.00809
G1 X34.337 Y101.695 E0.18164
G1 X34.346 Y101.715 E0.00788
G1 X34.535 Y102.177 E0.18163
G1 X34.541 Y102.198 E0.00789
G1 X34.679 Y102.679 E0.18163
G1 X34.683 Y102.7 E0.00789
G1 X34.767 Y103.193 E0.18162
G1 X34.769 Y103.214 E0.00789
G1 X34.8 Y103.713 E0.18163
G1 X34.799 Y103.735 E0.00789
G1 X34.775 Y104.234 E0.18162
G1 X34.773 Y104.256 E0.00789
G1 X34.694 Y104.749 E0.18163
G1 X34.69 Y104.77 E0.00789
G1 X34.558 Y105.253 E0.18162
G1 X34.551 Y105.273 E0.00789
G1 X34.368 Y105.738 E0.18163
G1 X34.359 Y105.758 E0.00788
G1 X34.127 Y106.2 E0.18163
G1 X34.116 Y106.219 E0.00789
G1 X33.837 Y106.634 E0.18163
G1 X33.823 Y106.651 E0.00788
G1 X33.501 Y107.033 E0.18163
G1 X33.486 Y107.049 E0.00789
G1 X33.124 Y107.393 E0.18163
G1 X33.108 Y107.407 E0.00789
G1 X32.711 Y107.711 E0.18162
G1 X32.693 Y107.723 E0.00789
G1 X32.265 Y107.982 E0.18163
G1 X32.246 Y107.992 E0.00788
G1 X31.792 Y108.202 E0.18162
G1 X31.772 Y108.21 E0.00789
G1 X31.299 Y108.37 E0.18163
G1 X31.278 Y108.376 E0.00788
G1 X30.79 Y108.484 E0.18162
G1 X30.768 Y108.487 E0.00789
G1 X30.272 Y108.542 E0.18163
G1 X30.25 Y108.543 E0.00788
G1 X29.75 Y108.543 E0.18162
G1 X29.728 Y108.542 E0.00788
G1 X29.232 Y108.487 E0.18163
G1 X29.21 Y108.484 E0.00789
G1 X28.722 Y108.376 E0.18162
G1 X28.701 Y108.37 E0.00788
G1 X28.228 Y108.21 E0.18163
G1 X28.208 Y108.202 E0.00789
G1 X27.754 Y107.992 E0.18162
G1 X27.735 Y107.982 E0.00789
G1 X27.307 Y107.723 E0.18163
G1 X27.289 Y107.711 E0.00788
G1 X26.892 Y107.407 E0.18162
G1 X26.876 Y107.393 E0.00789
G1 X26.514 Y107.049 E0.18163
G1 X26.499 Y107.033 E0.00789
G1 X26.177 Y106.651 E0.18162
G1 X26.163 Y106.634 E0.00789
G1 X25.884 Y106.219 E0.18163
G1 X25.873 Y106.2 E0.00789
G1 X25.641 Y105.758 E0.18163
G1 X25.632 Y105.738 E0.00789
G1 X25.449 Y105.273 E0.18163
G1 X25.442 Y105.253 E0.00789
G1 X25.31 Y104.77 E0.18162
G1 X25.306 Y104.749 E0.00789
G1 X25.227 Y104.256 E0.18163
G1 X25.225 Y104.234 E0.00789
G1 X25.201 Y103.735 E0.18162
G1 X25.2 Y103.713 E0.00789
G1 X25.231 Y103.214 E0.18163
G1 X25.233 Y103.193 E0.00789
G1 X25.317 Y102.7 E0.18163
