; generated by SuperSlicer 2.4 on 2024-05-08 at 10:16:27 UTC


;
;

;
;
; 

; external perimeters extrusion width = 0.42mm
; perimeters extrusion width = 0.44mm
; infill extrusion width = 0.45mm
; solid infill extrusion width = 0.45mm
; top infill extrusion width = 0.40mm
; first layer extrusion width = 0.42mm

; object:{"name":"Validation(1)","id":"Validation(1).stl id:0 copy 0","object_center":[67.500000,67.500000,0.000000],"boundingbox_center":[67.500000,67.500000,0.100000],"boundingbox_size":[80.500000,80.498810,0.200000]}
; plater:{"center":[67.500000,67.500000,0.000000],"boundingbox_center":[67.500000,67.500000,0.100000],"boundingbox_size":[80.500000,80.498810,0.200000]}

M73 P0 R1
M204 P1250 T1500 ; sets acceleration (P, T), mm/sec^2
;TYPE:Custom
SET_PRINT_STATS_INFO TOTAL_LAYER=1
M862.3 P "MK3S" ; printer model check
M862.1 P0.4 ; nozzle diameter check
M115 U3.10.1 ; tell printer latest fw version
G90 ; use absolute coordinates
M83 ; extruder relative mode
;M104 S0 ; set extruder temp
;M140 S0 ; set bed temp
;M190 S0 ; wait for bed temp
;M109 S0 ; wait for extruder temp
G28 W ; home all without mesh bed level
; G80 ; mesh bed leveling
;G1 Z0.2 F720
;G1 Y-3 F1000 ; go outside print area
;G92 E0
;G1 X60 E9 F1000 ; intro line
;G1 X100 E12.5 F1000 ; intro line
;G92 E0
M221 S95

; Don't change E values below. Excessive value can damage the printer.

M107
G21 ; set units to millimeters
G90 ; use absolute coordinates
M83 ; use relative distances for extrusion
M900 K0.05 ; Filament gcode LA 1.5
M900 K30 ; Filament gcode LA 1.0
;_TOOLCHANGE 0
M107
;LAYER_CHANGE
;Z:0.2
;HEIGHT:0.2
;BEFORE_LAYER_CHANGE
G92 E0.0
;0.2


G1 Z0.4 F720
;AFTER_LAYER_CHANGE
;0.2
SET_PRINT_STATS_INFO CURRENT_LAYER=1
G1 Z0.6
; printing object Validation(1).stl id:0 copy 0
M204 S800
M73 P31 R0
G1 X67.5 Y94.943 F10800
G1 Z0.2 F720
;TYPE:Thin wall
;WIDTH:0.626018
M73 P33 R0
G1 F1200
G1 X67.443 Y94.959 E0.03532
;WIDTH:0.584738
G1 X67.385 Y94.974 E0.03282
;WIDTH:0.543458
G1 X67.328 Y94.99 E0.03032
;WIDTH:0.504489
G1 X67.226 Y95.007 E0.04845
G1 X67.205 Y95.009 E0.01024
G1 X66.962 Y95.03 E0.11431
G1 X66.72 Y95.05 E0.11431
G1 X66.662 Y95.058 E0.02739
G1 X66.424 Y95.1 E0.11356
G1 X66.186 Y95.141 E0.11356
G1 X66.126 Y95.155 E0.0289
G1 X65.661 Y95.278 E0.22562
G1 X65.595 Y95.3 E0.03294
G1 X65.153 Y95.465 E0.22149
G1 X65.009 Y95.526 E0.07358
G1 X64.864 Y95.587 E0.07358
G1 X64.84 Y95.598 E0.01266
G1 X64.749 Y95.643 E0.04731
G1 X64.659 Y95.687 E0.04731
G1 X64.518 Y95.764 E0.07561
G1 X64.376 Y95.841 E0.07561
G1 X64.358 Y95.851 E0.01013
G1 X64.273 Y95.903 E0.04657
G1 X64.188 Y95.954 E0.04657
G1 X64.052 Y96.044 E0.07636
G1 X63.917 Y96.133 E0.07636
G1 X63.899 Y96.146 E0.01013
G1 X63.741 Y96.261 E0.09163
G1 X63.485 Y96.465 E0.15421
G1 X63.464 Y96.482 E0.01266
G1 X63.394 Y96.544 E0.04379
G1 X63.325 Y96.606 E0.0438
G1 X63.13 Y96.795 E0.12721
G1 X62.936 Y96.984 E0.12721
G1 X62.875 Y97.049 E0.04193
G1 X62.587 Y97.398 E0.2125
G1 X62.487 Y97.53 E0.07807
G1 X62.386 Y97.663 E0.07807
G1 X62.371 Y97.685 E0.01266
G1 X62.32 Y97.76 E0.04282
G1 X62.269 Y97.836 E0.04282
G1 X62.179 Y97.981 E0.0801
G1 X62.09 Y98.126 E0.0801
M73 P34 R0
G1 X62.079 Y98.145 E0.01013
G1 X62.036 Y98.223 E0.04207
G1 X61.992 Y98.302 E0.04207
G1 X61.916 Y98.456 E0.08086
G1 X61.839 Y98.61 E0.08086
G1 X61.829 Y98.629 E0.01013
G1 X61.794 Y98.71 E0.04132
G1 X61.758 Y98.79 E0.04132
G1 X61.63 Y99.113 E0.16321
G1 X61.621 Y99.138 E0.01267
G1 X61.594 Y99.218 E0.0393
G1 X61.568 Y99.297 E0.0393
G1 X61.419 Y99.818 E0.25441
G1 X61.396 Y99.918 E0.04837
G1 X61.317 Y100.35 E0.20613
G1 X61.305 Y100.434 E0.03971
G1 X61.303 Y100.455 E0.01017
G1 X61.283 Y100.672 E0.10231
G1 X61.262 Y100.889 E0.10231
G1 X61.258 Y100.976 E0.04121
G1 X61.257 Y100.998 E0.01017
G1 X61.256 Y101.213 E0.10092
G1 X61.254 Y101.428 E0.10092
G1 X61.259 Y101.521 E0.04402
G1 X61.26 Y101.543 E0.01012
G1 X61.284 Y101.803 E0.12289
G1 X61.308 Y102.064 E0.12289
G1 X61.31 Y102.085 E0.01006
G1 X61.331 Y102.239 E0.07293
G1 X61.368 Y102.419 E0.08649
G1 X61.404 Y102.6 E0.08649
G1 X61.41 Y102.626 E0.01246
G1 X61.463 Y102.829 E0.09869
G1 X61.516 Y103.032 E0.09869
G1 X61.572 Y103.206 E0.08566
G1 X61.627 Y103.38 E0.08566
G1 X61.636 Y103.405 E0.01268
G1 X61.662 Y103.474 E0.03458
G1 X61.688 Y103.543 E0.03458
G1 X61.837 Y103.888 E0.17669
G1 X61.846 Y103.908 E0.01014
G1 X61.877 Y103.972 E0.03319
G1 X61.907 Y104.035 E0.03319
G1 X62 Y104.203 E0.08975
G1 X62.092 Y104.37 E0.08975
G1 X62.103 Y104.388 E0.00997
G1 X62.211 Y104.565 E0.09735
G1 X62.319 Y104.742 E0.09735
G1 X62.35 Y104.787 E0.02559
G1 X62.396 Y104.854 E0.03829
G1 X62.519 Y105.013 E0.09464
G1 X62.642 Y105.173 E0.09464
G1 X62.888 Y105.465 E0.17934
G1 X62.906 Y105.485 E0.01268
G1 X62.952 Y105.533 E0.0312
G1 X62.997 Y105.582 E0.0312
G1 X63.137 Y105.718 E0.09173
G1 X63.277 Y105.854 E0.09173
G1 X63.297 Y105.873 E0.01269
G1 X63.343 Y105.914 E0.02917
G1 X63.39 Y105.954 E0.02917
G1 X63.811 Y106.291 E0.25311
G1 X63.86 Y106.327 E0.02862
G1 X63.932 Y106.377 E0.04123
G1 X64.374 Y106.658 E0.2458
G1 X64.392 Y106.669 E0.01009
G1 X64.446 Y106.7 E0.02923
G1 X64.5 Y106.731 E0.02923
G1 X64.678 Y106.821 E0.09371
G1 X64.856 Y106.911 E0.09371
G1 X64.876 Y106.92 E0.01015
G1 X64.981 Y106.968 E0.05436
G1 X65.171 Y107.042 E0.09575
G1 X65.361 Y107.116 E0.09575
G1 X65.381 Y107.123 E0.00996
G1 X65.565 Y107.185 E0.09135
G1 X65.749 Y107.248 E0.09135
G1 X65.814 Y107.266 E0.03159
G1 X65.905 Y107.291 E0.04426
G1 X66.088 Y107.331 E0.08799
G1 X66.271 Y107.372 E0.08799
G1 X66.473 Y107.405 E0.09636
G1 X66.676 Y107.439 E0.09636
G1 X66.702 Y107.442 E0.01246
G1 X66.89 Y107.463 E0.08883
G1 X67.078 Y107.484 E0.08883
M73 P35 R0
G1 X67.15 Y107.487 E0.03411
G1 X67.244 Y107.491 E0.04418
G1 X67.506 Y107.491 E0.1229
G1 X67.768 Y107.491 E0.1229
G1 X67.789 Y107.491 E0.01011
G1 X67.893 Y107.486 E0.0487
G1 X68.102 Y107.466 E0.09858
G1 X68.31 Y107.446 E0.09858
G1 X68.332 Y107.443 E0.01017
G1 X68.429 Y107.429 E0.04589
G1 X68.847 Y107.351 E0.19995
G1 X68.868 Y107.347 E0.01017
G1 X68.958 Y107.326 E0.04311
G1 X69.165 Y107.266 E0.10137
G1 X69.372 Y107.206 E0.10137
G1 X69.398 Y107.198 E0.01246
G1 X69.567 Y107.139 E0.08446
G1 X69.737 Y107.079 E0.08446
G1 X69.934 Y106.999 E0.09988
G1 X70.13 Y106.918 E0.09988
G1 X70.155 Y106.907 E0.01271
G1 X70.231 Y106.871 E0.03937
G1 X70.424 Y106.765 E0.10324
G1 X70.617 Y106.66 E0.10324
G1 X70.64 Y106.647 E0.01246
G1 X70.936 Y106.463 E0.16388
G1 X71.292 Y106.21 E0.20488
G1 X71.313 Y106.194 E0.01246
G1 X71.45 Y106.084 E0.08273
G1 X71.588 Y105.975 E0.08273
G1 X71.652 Y105.918 E0.04021
G1 X71.716 Y105.861 E0.04021
G1 X71.732 Y105.846 E0.01013
G1 X71.856 Y105.725 E0.08132
G1 X71.98 Y105.605 E0.08132
G1 X72.041 Y105.54 E0.0416
G1 X72.102 Y105.476 E0.0416
G1 X72.116 Y105.46 E0.01013
G1 X72.227 Y105.331 E0.07993
G1 X72.339 Y105.202 E0.07993
G1 X72.395 Y105.13 E0.04301
G1 X72.451 Y105.057 E0.04301
G1 X72.466 Y105.036 E0.01255
G1 X72.638 Y104.787 E0.14212
G1 X72.81 Y104.538 E0.14212
G1 X72.902 Y104.384 E0.08444
G1 X72.915 Y104.36 E0.01255
G1 X73.037 Y104.129 E0.12291
G1 X73.159 Y103.897 E0.12291
G1 X73.196 Y103.82 E0.04009
G1 X73.282 Y103.607 E0.10794
G1 X73.369 Y103.394 E0.10794
G1 X73.396 Y103.32 E0.03733
G1 X73.534 Y102.875 E0.21869
G1 X73.553 Y102.804 E0.03455
G1 X73.647 Y102.342 E0.22148
G1 X73.651 Y102.321 E0.00997
G1 X73.702 Y102.003 E0.15144
G1 X73.72 Y101.802 E0.09448
G1 X73.722 Y101.776 E0.01253
G1 X73.733 Y101.484 E0.13726
G1 X73.745 Y101.192 E0.13726
G1 X73.742 Y101.092 E0.0471
G1 X73.739 Y100.991 E0.0471
G1 X73.738 Y100.965 E0.01254
G1 X73.695 Y100.443 E0.2458
G1 X73.688 Y100.382 E0.02908
G1 X73.538 Y99.647 E0.35224
G1 X73.523 Y99.584 E0.03065
G1 X73.449 Y99.353 E0.11395
G1 X73.375 Y99.121 E0.11395
G1 X73.358 Y99.073 E0.02407
M73 P36 R0
G1 X73.162 Y98.62 E0.23197
G1 X73.153 Y98.6 E0.00998
G1 X73.022 Y98.33 E0.14096
G1 X72.912 Y98.136 E0.10497
G1 X72.901 Y98.118 E0.01001
G1 X72.762 Y97.896 E0.1229
G1 X72.623 Y97.674 E0.1229
G1 X72.599 Y97.637 E0.02084
G1 X72.444 Y97.441 E0.1176
G1 X72.288 Y97.244 E0.1176
G1 X72.271 Y97.224 E0.01248
G1 X72.176 Y97.116 E0.0676
G1 X72.081 Y97.008 E0.0676
G1 X71.733 Y96.654 E0.23349
G1 X71.704 Y96.627 E0.01837
G1 X71.506 Y96.465 E0.12011
G1 X71.308 Y96.303 E0.12011
G1 X71.291 Y96.29 E0.00999
G1 X71.178 Y96.205 E0.06635
G1 X71.065 Y96.121 E0.06635
G1 X70.964 Y96.055 E0.05662
G1 X70.863 Y95.99 E0.05662
G1 X70.84 Y95.976 E0.0125
G1 X70.366 Y95.703 E0.25708
G1 X70.26 Y95.649 E0.05579
G1 X70.154 Y95.596 E0.05579
G1 X70.13 Y95.584 E0.01265
G1 X70.005 Y95.53 E0.06382
G1 X69.881 Y95.475 E0.06382
G1 X69.763 Y95.431 E0.05913
G1 X69.645 Y95.387 E0.05913
G1 X69.62 Y95.378 E0.0125
G1 X69.364 Y95.297 E0.12602
G1 X69.108 Y95.217 E0.12602
G1 X68.987 Y95.188 E0.05834
G1 X68.867 Y95.158 E0.05834
G1 X68.841 Y95.153 E0.0125
G1 X68.583 Y95.104 E0.12291
G1 X68.326 Y95.056 E0.12291
G1 X68.305 Y95.053 E0.01026
G1 X68.041 Y95.03 E0.12428
G1 X67.778 Y95.007 E0.12428
G1 X67.728 Y95.005 E0.02308
G1 X67.5 Y94.943 E0.111
G1 X67.5 Y94.755 E0.08867
G1 X67.5 Y85.249 E4.4652
G1 X67.511 Y85.197 E0.02503
;WIDTH:0.529016
M73 P37 R0
G1 X67.522 Y85.145 E0.02636
;WIDTH:0.558031
G1 X67.533 Y85.092 E0.02793
;WIDTH:0.587047
G1 X67.544 Y85.04 E0.0295
G1 X67.642 Y85.019 E0.05596
;WIDTH:0.503725
G1 X67.741 Y84.997 E0.04739
G1 X67.87 Y84.994 E0.0606
G1 X68.01 Y84.991 E0.06564
G1 X68.257 Y84.981 E0.11598
G1 X68.504 Y84.97 E0.11598
G1 X68.631 Y84.962 E0.05931
G1 X68.767 Y84.953 E0.06436
G1 X69.014 Y84.931 E0.11599
G1 X69.26 Y84.91 E0.11599
G1 X69.386 Y84.896 E0.05931
G1 X69.522 Y84.881 E0.06435
G1 X69.768 Y84.849 E0.11599
G1 X70.013 Y84.817 E0.11599
G1 X70.138 Y84.798 E0.05931
G1 X70.274 Y84.777 E0.06435
G1 X70.761 Y84.692 E0.23198
G1 X70.885 Y84.668 E0.05932
G1 X71.009 Y84.643 E0.05932
G1 X71.261 Y84.588 E0.12103
G1 X71.503 Y84.535 E0.11598
G1 X71.626 Y84.505 E0.05931
G1 X71.748 Y84.475 E0.05931
G1 X71.998 Y84.409 E0.12103
G1 X72.237 Y84.345 E0.11599
G1 X72.358 Y84.31 E0.05931
G1 X72.49 Y84.272 E0.06435
G1 X72.726 Y84.198 E0.116
G1 X72.962 Y84.124 E0.116
G1 X73.082 Y84.084 E0.05931
G1 X73.212 Y84.04 E0.06435
G1 X73.445 Y83.956 E0.11599
G1 X73.678 Y83.872 E0.11599
G1 X73.796 Y83.826 E0.05931
G1 X73.924 Y83.777 E0.06435
G1 X74.152 Y83.683 E0.11599
G1 X74.381 Y83.589 E0.11599
G1 X74.497 Y83.538 E0.0593
G1 X74.623 Y83.483 E0.06435
M73 P38 R0
G1 X74.847 Y83.38 E0.11599
G1 X75.072 Y83.276 E0.11599
G1 X75.185 Y83.22 E0.05932
G1 X75.309 Y83.16 E0.06437
G1 X75.528 Y83.046 E0.11599
G1 X75.748 Y82.933 E0.11599
G1 X75.859 Y82.872 E0.05931
G1 X75.98 Y82.807 E0.06435
G1 X76.194 Y82.684 E0.11599
G1 X76.409 Y82.561 E0.11599
G1 X76.517 Y82.496 E0.05931
G1 X76.635 Y82.425 E0.06435
G1 X76.844 Y82.293 E0.11599
G1 X77.053 Y82.161 E0.11599
G1 X77.159 Y82.091 E0.05931
G1 X77.273 Y82.015 E0.06436
G1 X77.679 Y81.733 E0.23197
G1 X77.782 Y81.659 E0.05932
G1 X77.893 Y81.578 E0.06436
G1 X78.09 Y81.428 E0.116
G1 X78.287 Y81.279 E0.116
G1 X78.386 Y81.2 E0.0593
G1 X78.485 Y81.121 E0.0593
G1 X78.683 Y80.956 E0.12103
G1 X78.873 Y80.798 E0.11599
G1 X78.969 Y80.716 E0.05932
G1 X79.064 Y80.633 E0.05932
G1 X79.256 Y80.459 E0.12103
G1 X79.439 Y80.293 E0.11598
G1 X79.622 Y80.119 E0.11861
G1 X79.806 Y79.938 E0.12104
G1 X79.982 Y79.764 E0.116
G1 X80.07 Y79.673 E0.05931
G1 X80.158 Y79.582 E0.05931
G1 X80.333 Y79.393 E0.12103
G1 X80.502 Y79.212 E0.11599
G1 X80.585 Y79.117 E0.05931
G1 X80.676 Y79.014 E0.06435
G1 X80.837 Y78.826 E0.11599
G1 X80.997 Y78.637 E0.11599
G1 X81.076 Y78.539 E0.05931
G1 X81.163 Y78.432 E0.06436
G1 X81.315 Y78.237 E0.11599
G1 X81.467 Y78.042 E0.11599
G1 X81.542 Y77.94 E0.05931
G1 X81.624 Y77.83 E0.06435
G1 X81.767 Y77.629 E0.11599
G1 X81.91 Y77.427 E0.11599
G1 X81.981 Y77.322 E0.05931
G1 X82.058 Y77.209 E0.06435
G1 X82.192 Y77.001 E0.11599
G1 X82.327 Y76.793 E0.11599
G1 X82.393 Y76.686 E0.05931
G1 X82.465 Y76.569 E0.06436
G1 X82.59 Y76.355 E0.11599
G1 X82.715 Y76.142 E0.11599
G1 X82.777 Y76.032 E0.05931
G1 X82.844 Y75.912 E0.06436
G1 X82.96 Y75.693 E0.11599
G1 X83.076 Y75.475 E0.11599
G1 X83.132 Y75.362 E0.05932
G1 X83.194 Y75.239 E0.06436
G1 X83.3 Y75.016 E0.11599
G1 X83.406 Y74.792 E0.11599
G1 X83.458 Y74.677 E0.05931
M73 P39 R0
G1 X83.514 Y74.552 E0.06436
G1 X83.611 Y74.324 E0.11599
G1 X83.707 Y74.096 E0.11599
G1 X83.754 Y73.979 E0.05931
G1 X83.805 Y73.851 E0.06435
G1 X83.891 Y73.62 E0.11599
G1 X83.978 Y73.388 E0.11599
G1 X84.02 Y73.268 E0.05932
G1 X84.065 Y73.139 E0.06436
G1 X84.141 Y72.904 E0.11599
G1 X84.218 Y72.668 E0.11599
G1 X84.254 Y72.547 E0.05931
G1 X84.294 Y72.416 E0.06435
G1 X84.36 Y72.178 E0.116
G1 X84.426 Y71.939 E0.116
G1 X84.457 Y71.817 E0.05931
G1 X84.488 Y71.694 E0.05931
G1 X84.546 Y71.443 E0.12103
G1 X84.602 Y71.202 E0.11599
G1 X84.628 Y71.078 E0.05932
G1 X84.654 Y70.954 E0.05932
G1 X84.701 Y70.7 E0.12103
G1 X84.747 Y70.457 E0.11599
G1 X84.787 Y70.208 E0.11862
G1 X84.824 Y69.952 E0.12104
G1 X84.858 Y69.707 E0.11599
G1 X84.889 Y69.456 E0.11861
G1 X84.914 Y69.199 E0.12103
G1 X84.938 Y68.953 E0.11598
G1 X84.947 Y68.827 E0.05932
G1 X84.958 Y68.69 E0.06436
G1 X84.971 Y68.443 E0.11599
G1 X84.984 Y68.196 E0.11599
G1 X84.988 Y68.07 E0.05931
G1 X84.993 Y67.933 E0.06435
G1 X84.995 Y67.685 E0.11599
G1 X84.998 Y67.438 E0.11599
G1 X84.997 Y67.311 E0.05931
G1 X84.995 Y67.174 E0.06435
G1 X84.979 Y66.68 E0.23197
G1 X84.972 Y66.554 E0.05932
G1 X84.964 Y66.416 E0.06436
G1 X84.927 Y65.923 E0.232
G1 X84.915 Y65.797 E0.05931
G1 X84.901 Y65.661 E0.06435
G1 X84.872 Y65.415 E0.11598
G1 X84.842 Y65.17 E0.11599
G1 X84.824 Y65.044 E0.05932
G1 X84.805 Y64.909 E0.06436
G1 X84.765 Y64.664 E0.11598
G1 X84.725 Y64.42 E0.11598
G1 X84.702 Y64.296 E0.05931
G1 X84.676 Y64.161 E0.06435
G1 X84.626 Y63.919 E0.116
G1 X84.575 Y63.677 E0.116
G1 X84.547 Y63.554 E0.05932
G1 X84.518 Y63.431 E0.05932
G1 X84.455 Y63.18 E0.12103
G1 X84.394 Y62.941 E0.11599
G1 X84.36 Y62.819 E0.0593
G1 X84.326 Y62.697 E0.0593
G1 X84.252 Y62.45 E0.12103
M73 P40 R0
G1 X84.18 Y62.213 E0.11599
G1 X84.141 Y62.093 E0.05932
G1 X84.102 Y61.972 E0.05932
G1 X84.017 Y61.729 E0.12104
G1 X83.935 Y61.495 E0.11599
G1 X83.891 Y61.377 E0.0593
G1 X83.847 Y61.258 E0.0593
G1 X83.751 Y61.019 E0.12104
G1 X83.66 Y60.789 E0.11599
G1 X83.61 Y60.672 E0.05931
G1 X83.557 Y60.546 E0.06435
G1 X83.455 Y60.321 E0.11599
G1 X83.354 Y60.095 E0.11599
G1 X83.299 Y59.981 E0.05932
G1 X83.24 Y59.857 E0.06436
G1 X83.018 Y59.415 E0.23197
G1 X82.959 Y59.303 E0.05931
G1 X82.894 Y59.182 E0.06435
G1 X82.774 Y58.966 E0.11599
G1 X82.653 Y58.75 E0.11599
G1 X82.589 Y58.641 E0.05931
G1 X82.519 Y58.523 E0.06436
G1 X82.39 Y58.312 E0.11599
G1 X82.26 Y58.102 E0.11599
G1 X82.191 Y57.996 E0.05931
G1 X82.116 Y57.881 E0.06435
G1 X81.978 Y57.676 E0.11599
G1 X81.839 Y57.471 E0.11599
G1 X81.765 Y57.368 E0.05932
G1 X81.686 Y57.256 E0.06436
G1 X81.538 Y57.058 E0.11599
G1 X81.391 Y56.859 E0.11599
G1 X81.313 Y56.76 E0.05931
G1 X81.229 Y56.651 E0.06436
G1 X80.917 Y56.268 E0.23198
G1 X80.835 Y56.171 E0.05931
G1 X80.746 Y56.067 E0.06435
G1 X80.581 Y55.882 E0.11599
G1 X80.417 Y55.697 E0.11599
G1 X80.331 Y55.604 E0.05931
G1 X80.238 Y55.503 E0.06436
G1 X80.066 Y55.326 E0.11599
G1 X79.894 Y55.148 E0.11599
G1 X79.804 Y55.059 E0.05931
G1 X79.706 Y54.963 E0.06435
G1 X79.526 Y54.793 E0.11599
G1 X79.347 Y54.623 E0.11599
G1 X79.253 Y54.538 E0.05931
G1 X79.151 Y54.446 E0.06436
G1 X78.965 Y54.284 E0.11598
G1 X78.778 Y54.122 E0.11598
G1 X78.68 Y54.041 E0.05931
G1 X78.575 Y53.953 E0.06435
G1 X78.381 Y53.799 E0.11599
G1 X78.187 Y53.645 E0.11599
G1 X78.087 Y53.569 E0.05931
G1 X77.977 Y53.486 E0.06436
G1 X77.777 Y53.341 E0.11599
G1 X77.577 Y53.195 E0.11599
G1 X77.473 Y53.123 E0.05931
G1 X77.36 Y53.045 E0.06435
G1 X77.154 Y52.909 E0.11599
G1 X76.948 Y52.772 E0.11599
G1 X76.841 Y52.705 E0.05931
M73 P41 R0
G1 X76.734 Y52.637 E0.05931
G1 X76.682 Y52.618 E0.02589
;WIDTH:0.525735
G1 X76.63 Y52.6 E0.02713
;WIDTH:0.555125
G1 X76.578 Y52.581 E0.02878
;WIDTH:0.584516
G1 X76.526 Y52.562 E0.03043
G1 X76.455 Y52.639 E0.05784
;WIDTH:0.514086
G1 X76.384 Y52.716 E0.05032
G1 X75.354 Y54.431 E0.95912
G1 X75.336 Y54.481 E0.02549
G1 X75.319 Y54.531 E0.02548
;WIDTH:0.557757
G1 X75.301 Y54.581 E0.02785
;WIDTH:0.586637
G1 X75.284 Y54.632 E0.02941
G1 X75.357 Y54.701 E0.05582
;WIDTH:0.516575
