; generated by SuperSlicer 2.4 on 2024-06-11 at 13:29:43 UTC


;
;

;
;
; 

; external perimeters extrusion width = 0.42mm
; perimeters extrusion width = 0.44mm
; infill extrusion width = 0.45mm
; solid infill extrusion width = 0.45mm
; top infill extrusion width = 0.40mm
; first layer extrusion width = 0.42mm

; object:{"name":"Validation 2(2)","id":"Validation 2(2).stl id:0 copy 0","object_center":[67.500000,67.500000,0.000000],"boundingbox_center":[67.500000,67.500000,0.100000],"boundingbox_size":[27.320507,25.000000,0.200000]}
; plater:{"center":[67.500000,67.500000,0.000000],"boundingbox_center":[67.500000,67.500000,0.100000],"boundingbox_size":[27.320507,25.000000,0.200000]}

M73 P0 R0
M204 P1250 T1500 ; sets acceleration (P, T), mm/sec^2
;TYPE:Custom
SET_PRINT_STATS_INFO TOTAL_LAYER=1
M862.3 P "MK3S" ; printer model check
M862.1 P0.4 ; nozzle diameter check
M115 U3.10.1 ; tell printer latest fw version
G90 ; use absolute coordinates
M83 ; extruder relative mode
;M104 S0 ; set extruder temp
;M140 S0 ; set bed temp
;M190 S0 ; wait for bed temp
;M109 S0 ; wait for extruder temp
G28 W ; home all without mesh bed level
; G80 ; mesh bed leveling
;G1 Z0.2 F720
;G1 Y-3 F1000 ; go outside print area
;G92 E0
;G1 X60 E9 F1000 ; intro line
;G1 X100 E12.5 F1000 ; intro line
;G92 E0
M221 S95

; Don't change E values below. Excessive value can damage the printer.

M107
G21 ; set units to millimeters
G90 ; use absolute coordinates
M83 ; use relative distances for extrusion
M900 K0.05 ; Filament gcode LA 1.5
M900 K30 ; Filament gcode LA 1.0
;_TOOLCHANGE 0
M107
;LAYER_CHANGE
;Z:0.2
;HEIGHT:0.2
;BEFORE_LAYER_CHANGE
G92 E0.0
;0.2


G1 Z0.4 F720
;AFTER_LAYER_CHANGE
;0.2
SET_PRINT_STATS_INFO CURRENT_LAYER=1
G1 Z0.6
; printing object Validation 2(2).stl id:0 copy 0
M204 S800
M73 P36 R0
G1 X72.776 Y71.899 F10800
G1 Z0.2 F720
;TYPE:External perimeter
;WIDTH:0.42
M73 P38 R0
G1 F1200
G1 X73.06 Y71.616 E0.15364
G1 X73.366 Y71.359 E0.15366
G1 X73.691 Y71.132 E0.15193
G1 X74.225 Y70.839 E0.23382
G1 X74.591 Y70.687 E0.15193
G1 X74.972 Y70.567 E0.15365
G1 X75.359 Y70.481 E0.15193
G1 X75.965 Y70.415 E0.23381
G1 X76.36 Y70.415 E0.15193
G1 X76.759 Y70.45 E0.15365
G1 X77.154 Y70.519 E0.15366
G1 X77.536 Y70.622 E0.15192
G1 X78.104 Y70.842 E0.23381
G1 X78.451 Y71.023 E0.15022
G1 X78.958 Y71.362 E0.2338
G1 X79.261 Y71.616 E0.15193
G1 X79.544 Y71.899 E0.15366
G1 X79.801 Y72.206 E0.15365
G1 X80.029 Y72.53 E0.15192
G1 X80.322 Y73.065 E0.23382
G1 X80.473 Y73.43 E0.15193
M73 P39 R0
G1 X80.593 Y73.812 E0.15365
G1 X80.68 Y74.203 E0.15365
G1 X80.732 Y74.596 E0.15194
G1 X80.745 Y75.205 E0.2338
G1 X80.711 Y75.595 E0.15021
G1 X80.592 Y76.192 E0.23381
G1 X80.473 Y76.57 E0.15193
G1 X80.322 Y76.935 E0.15192
G1 X80.029 Y77.47 E0.23382
G1 X79.801 Y77.794 E0.15192
G1 X79.544 Y78.101 E0.15365
G1 X79.261 Y78.384 E0.15366
G1 X78.958 Y78.638 E0.15193
G1 X78.451 Y78.977 E0.2338
G1 X78.1 Y79.16 E0.15194
G1 X77.73 Y79.313 E0.15364
G1 X77.348 Y79.433 E0.15365
G1 X76.957 Y79.52 E0.15365
G1 X76.565 Y79.572 E0.15194
G1 X75.96 Y79.585 E0.23208
G1 X75.359 Y79.519 E0.2321
G1 X74.972 Y79.433 E0.15193
G1 X74.591 Y79.313 E0.15365
G1 X74.221 Y79.16 E0.15364
M73 P40 R0
G1 X73.865 Y78.975 E0.15366
G1 X73.532 Y78.762 E0.15192
G1 X73.056 Y78.381 E0.23381
G1 X72.776 Y78.101 E0.15193
G1 X72.519 Y77.794 E0.15366
G1 X72.292 Y77.47 E0.15192
G1 X71.999 Y76.935 E0.23382
G1 X71.847 Y76.57 E0.15192
G1 X71.727 Y76.188 E0.15365
G1 X71.64 Y75.797 E0.15365
G1 X71.589 Y75.404 E0.15195
G1 X71.575 Y74.795 E0.2338
G1 X71.61 Y74.401 E0.15193
G1 X71.679 Y74.007 E0.15366
G1 X71.782 Y73.624 E0.15192
G1 X72.003 Y73.056 E0.23381
G1 X72.183 Y72.709 E0.15022
G1 X72.522 Y72.203 E0.2338
G1 X72.738 Y71.945 E0.12891
;WIPE_START
M204 S1000
G1 X73.166 Y71.992 F10800
;WIPE_END
G1 Z0.6 F720
; acceleration to travel
M204 S1500
G1 X77.656 Y72.523 F10800
; decel to extrusion
M204 S800
M73 P41 R0
G1 X80.051 Y72.807
; end travel
G1 Z0.2 F720
;TYPE:Solid infill
;WIDTH:0.424594
G1 F1200
G1 X79.007 Y71.762 E0.57308
G1 X78.792 Y71.582 E0.1085
G1 X78.311 Y71.26 E0.22471
G1 X77.99 Y71.094 E0.14019
G1 X77.687 Y70.976 E0.12622
G1 X80.173 Y73.462 E1.36414
G1 X80.327 Y73.884 E0.17404
M73 P42 R0
G1 X80.383 Y74.205 E0.12678
G1 X76.952 Y70.774 E1.88248
G1 X76.723 Y70.724 E0.09101
G1 X76.352 Y70.707 E0.14417
G1 X80.461 Y74.817 E2.25457
G1 X80.47 Y75.196 E0.14708
M73 P43 R0
G1 X80.457 Y75.345 E0.05819
G1 X75.819 Y70.708 E2.54434
G1 X75.404 Y70.753 E0.16205
G1 X75.344 Y70.766 E0.0236
G1 X80.388 Y75.809 E2.76693
G1 X80.325 Y76.124 E0.12431
M73 P44 R0
G1 X80.288 Y76.243 E0.04839
G1 X74.923 Y70.878 E2.94345
G1 X74.532 Y71.02 E0.16143
M73 P45 R0
G1 X80.148 Y76.636 E3.08124
G1 X80.073 Y76.816 E0.07568
M73 P46 R0
G1 X79.974 Y76.996 E0.07955
G1 X74.164 Y71.186 E3.18774
G1 X73.836 Y71.366 E0.14516
G1 X73.821 Y71.376 E0.00703
M73 P47 R0
G1 X79.783 Y77.338 E3.27075
G1 X79.551 Y77.639 E0.14755
G1 X73.511 Y71.599 E3.31383
G1 X73.233 Y71.854 E0.14643
M73 P48 R0
G1 X79.315 Y77.937 E3.33715
G1 X79.037 Y78.192 E0.14643
M73 P49 R0
G1 X72.957 Y72.112 E3.33573
G1 X72.742 Y72.368 E0.12965
M73 P50 R0
G1 X72.717 Y72.405 E0.01746
G1 X78.755 Y78.443 E3.31237
G1 X78.435 Y78.656 E0.14915
M73 P51 R0
G1 X72.504 Y72.725 E3.25417
G1 X72.421 Y72.85 E0.05808
G1 X72.309 Y73.064 E0.09365
G1 X78.097 Y78.851 E3.17519
M73 P52 R0
G1 X77.989 Y78.907 E0.04711
G1 X77.718 Y79.006 E0.11183
G1 X72.15 Y73.438 E3.05492
G1 X72.046 Y73.704 E0.11103
M73 P53 R0
G1 X72.017 Y73.838 E0.05296
G1 X77.327 Y79.148 E2.91353
G1 X77.277 Y79.166 E0.02079
M73 P54 R0
G1 X76.882 Y79.236 E0.15555
G1 X71.92 Y74.274 E2.7223
G1 X71.883 Y74.443 E0.06702
G1 X71.856 Y74.744 E0.11719
M73 P55 R0
G1 X76.412 Y79.3 E2.4995
G1 X75.972 Y79.309 E0.17069
G1 X75.878 Y79.299 E0.03673
G1 X71.861 Y75.282 E2.20372
G1 X71.863 Y75.377 E0.03692
M73 P56 R0
G1 X71.958 Y75.912 E0.2106
G1 X75.251 Y79.205 E1.80669
G1 X74.685 Y79.053 E0.22725
G1 X74.462 Y78.949 E0.09564
G1 X71.931 Y76.419 E1.38822
M204 S1000
G1 Z0.6 F720
; acceleration to travel
M204 S1500
M73 P57 R0
G1 X66.361 Y75.884 F10800
; decel to extrusion
M204 S800
G1 X63.39 Y75.599
; end travel
G1 Z0.2 F720
;TYPE:External perimeter
;WIDTH:0.42
;over
G1 F1200
G1 X63.321 Y75.993 E0.15365
G1 X63.218 Y76.376 E0.15193
G1 X62.997 Y76.944 E0.23381
G1 X62.817 Y77.291 E0.15022
G1 X62.478 Y77.797 E0.2338
G1 X62.224 Y78.101 E0.15194
G1 X61.944 Y78.381 E0.15193
M73 P58 R0
G1 X61.468 Y78.762 E0.23381
G1 X61.135 Y78.975 E0.15192
G1 X60.779 Y79.16 E0.15366
G1 X60.409 Y79.313 E0.15364
G1 X60.028 Y79.433 E0.15365
G1 X59.637 Y79.52 E0.15365
G1 X59.244 Y79.572 E0.15194
G1 X58.64 Y79.585 E0.23208
G1 X58.038 Y79.519 E0.2321
G1 X57.652 Y79.433 E0.15193
G1 X57.27 Y79.313 E0.15365
G1 X56.9 Y79.16 E0.15364
G1 X56.549 Y78.977 E0.15194
G1 X56.042 Y78.638 E0.2338
G1 X55.739 Y78.384 E0.15193
G1 X55.456 Y78.101 E0.15366
G1 X55.199 Y77.794 E0.15365
G1 X54.971 Y77.47 E0.15192
G1 X54.678 Y76.935 E0.23382
G1 X54.527 Y76.57 E0.15192
G1 X54.407 Y76.188 E0.15365
G1 X54.32 Y75.797 E0.15365
G1 X54.268 Y75.404 E0.15194
G1 X54.255 Y74.795 E0.2338
G1 X54.289 Y74.401 E0.15193
M73 P59 R0
G1 X54.359 Y74.007 E0.15366
G1 X54.461 Y73.624 E0.15191
G1 X54.681 Y73.061 E0.23209
G1 X54.971 Y72.53 E0.23209
G1 X55.199 Y72.206 E0.15192
G1 X55.456 Y71.899 E0.15365
G1 X55.739 Y71.616 E0.15366
G1 X56.046 Y71.359 E0.15364
G1 X56.37 Y71.132 E0.15193
G1 X56.904 Y70.839 E0.23382
G1 X57.27 Y70.687 E0.15192
G1 X57.652 Y70.567 E0.15366
G1 X58.038 Y70.481 E0.15193
G1 X58.644 Y70.415 E0.23382
G1 X59.04 Y70.415 E0.15193
G1 X59.439 Y70.45 E0.15365
G1 X59.833 Y70.519 E0.15366
G1 X60.216 Y70.622 E0.15192
G1 X60.783 Y70.842 E0.23381
G1 X61.135 Y71.025 E0.15194
G1 X61.472 Y71.24 E0.15364
G1 X61.786 Y71.481 E0.15194
G1 X62.226 Y71.903 E0.2338
G1 X62.481 Y72.206 E0.15193
M73 P60 R0
G1 X62.708 Y72.53 E0.15193
G1 X63.001 Y73.065 E0.23381
G1 X63.153 Y73.43 E0.15193
G1 X63.273 Y73.812 E0.15365
G1 X63.36 Y74.203 E0.15365
G1 X63.411 Y74.596 E0.15194
G1 X63.425 Y75.205 E0.2338
G1 X63.395 Y75.539 E0.12891
;WIPE_START
M204 S1000
G1 X63.018 Y75.747 F10800
;WIPE_END
G1 Z0.6 F720
; acceleration to travel
M204 S1500
G1 X61.711 Y72.709 F10800
; decel to extrusion
M204 S800
G1 X61.013 Y71.09
; end travel
G1 Z0.2 F720
;TYPE:Solid infill
;WIDTH:0.424532
G1 F1200
G1 X62.08 Y72.156 E1.17038
G1 X62.262 Y72.374 E0.22012
M73 P61 R0
G1 X62.474 Y72.676 E0.28618
G1 X62.75 Y73.178 E0.44464
G1 X62.853 Y73.463 E0.23468
G1 X60.366 Y70.975 E2.72892
G1 X60.135 Y70.886 E0.19166
G1 X59.631 Y70.774 E0.40062
G1 X63.063 Y74.206 E3.76512
G1 X63.137 Y74.623 E0.32826
M73 P62 R0
G1 X63.141 Y74.817 E0.15086
G1 X59.031 Y70.707 E4.50898
G1 X58.653 Y70.691 E0.29352
G1 X58.498 Y70.708 E0.1209
G1 X63.136 Y75.345 E5.08832
G1 X63.117 Y75.557 E0.16484
M73 P63 R0
G1 X63.063 Y75.805 E0.19718
G1 X58.024 Y70.766 E5.52842
G1 X57.729 Y70.832 E0.23404
M73 P64 R0
G1 X57.602 Y70.878 E0.105
G1 X62.966 Y76.242 E5.88502
G1 X62.954 Y76.296 E0.04276
G1 X62.823 Y76.632 E0.2802
G1 X57.211 Y71.02 E6.15736
G1 X57.018 Y71.09 E0.15902
M73 P65 R0
G1 X56.843 Y71.186 E0.1546
G1 X62.658 Y77 E6.37886
G1 X62.579 Y77.15 E0.13144
M73 P66 R0
G1 X62.457 Y77.333 E0.17046
G1 X56.501 Y71.376 E6.53528
G1 X56.218 Y71.574 E0.2672
M73 P67 R0
G1 X56.19 Y71.6 E0.02942
G1 X62.242 Y77.651 E6.63904
G1 X62.02 Y77.915 E0.26708
M73 P68 R0
G1 X61.996 Y77.939 E0.02646
G1 X55.912 Y71.855 E6.6751
G1 X55.66 Y72.086 E0.26578
G1 X55.638 Y72.114 E0.02724
M73 P69 R0
G1 X61.726 Y78.202 E6.67954
G1 X61.431 Y78.439 E0.29428
G1 X55.407 Y72.416 E6.60906
G1 X55.203 Y72.681 E0.25984
M73 P70 R0
G1 X55.18 Y72.722 E0.03636
G1 X61.109 Y78.651 E6.50508
G1 X60.771 Y78.847 E0.30288
M73 P71 R0
G1 X54.991 Y73.067 E6.34134
G1 X54.931 Y73.177 E0.09778
M73 P72 R0
G1 X54.829 Y73.438 E0.21704
G1 X60.407 Y79.016 E6.11976
G1 X60.321 Y79.052 E0.0725
M73 P73 R0
G1 X59.997 Y79.139 E0.26044
G1 X54.696 Y73.838 E5.8154
G1 X54.599 Y74.275 E0.3469
G1 X59.575 Y79.25 E5.45912
G1 X59.223 Y79.297 E0.2754
M73 P74 R0
G1 X59.091 Y79.3 E0.1025
G1 X54.536 Y74.744 E4.99786
G1 X54.53 Y74.804 E0.04684
M73 P75 R0
G1 X54.541 Y75.283 E0.37114
G1 X58.557 Y79.299 E4.40628
G1 X58.089 Y79.248 E0.36502
G1 X57.93 Y79.205 E0.12818
G1 X54.637 Y75.912 E3.61212
G1 X54.673 Y76.116 E0.16064
M73 P76 R0
G1 X54.882 Y76.691 E0.474
G1 X57.43 Y79.239 E2.79568
M204 S1000
G1 Z0.6 F720
; acceleration to travel
M204 S1500
G1 X62.589 Y69.33 F10800
; decel to extrusion
M204 S800
G1 X65.34 Y64.045
; end travel
M73 P77 R0
G1 Z0.2 F720
;TYPE:External perimeter
;WIDTH:0.42
G1 F1200
G1 X65.209 Y63.977 E0.05657
G1 X64.703 Y63.638 E0.2338
G1 X64.399 Y63.384 E0.15194
G1 X64.116 Y63.101 E0.15365
G1 X63.859 Y62.794 E0.15364
G1 X63.629 Y62.466 E0.15365
G1 X63.431 Y62.123 E0.15193
G1 X63.186 Y61.565 E0.2338
G1 X63.067 Y61.188 E0.15193
G1 X62.98 Y60.797 E0.15365
G1 X62.928 Y60.404 E0.15194
G1 X62.915 Y59.795 E0.2338
G1 X62.95 Y59.401 E0.15193
G1 X63.019 Y59.007 E0.15365
G1 X63.122 Y58.624 E0.15192
G1 X63.342 Y58.056 E0.23381
M73 P78 R0
G1 X63.523 Y57.709 E0.15022
G1 X63.862 Y57.203 E0.2338
G1 X64.116 Y56.899 E0.15194
G1 X64.399 Y56.616 E0.15364
G1 X64.706 Y56.359 E0.15366
G1 X65.03 Y56.132 E0.15193
G1 X65.565 Y55.839 E0.23381
G1 X65.93 Y55.687 E0.15191
G1 X66.312 Y55.567 E0.15366
G1 X66.699 Y55.481 E0.15193
G1 X67.304 Y55.415 E0.23381
G1 X67.7 Y55.415 E0.15193
G1 X68.099 Y55.45 E0.15365
G1 X68.493 Y55.519 E0.15365
G1 X68.876 Y55.622 E0.15192
G1 X69.444 Y55.842 E0.23381
G1 X69.791 Y56.023 E0.15022
G1 X70.297 Y56.362 E0.2338
G1 X70.601 Y56.616 E0.15194
G1 X70.884 Y56.899 E0.15364
G1 X71.141 Y57.206 E0.15366
G1 X71.368 Y57.53 E0.15193
G1 X71.661 Y58.064 E0.23381
G1 X71.813 Y58.43 E0.15193
M73 P79 R0
G1 X71.933 Y58.812 E0.15365
G1 X72.019 Y59.199 E0.15193
G1 X72.085 Y59.804 E0.23382
G1 X72.085 Y60.2 E0.15193
G1 X72.051 Y60.595 E0.15193
G1 X71.932 Y61.192 E0.23381
G1 X71.813 Y61.57 E0.15193
G1 X71.661 Y61.936 E0.15192
G1 X71.368 Y62.47 E0.23381
G1 X71.141 Y62.794 E0.15193
G1 X70.884 Y63.101 E0.15366
G1 X70.601 Y63.384 E0.15364
G1 X70.294 Y63.641 E0.15366
G1 X69.97 Y63.868 E0.15192
G1 X69.435 Y64.161 E0.23382
G1 X69.07 Y64.313 E0.15191
G1 X68.688 Y64.433 E0.15366
G1 X68.297 Y64.52 E0.15365
G1 X67.904 Y64.572 E0.15194
G1 X67.295 Y64.585 E0.2338
G1 X66.901 Y64.55 E0.15193
G1 X66.507 Y64.481 E0.15365
G1 X66.124 Y64.378 E0.15193
G1 X65.556 Y64.158 E0.23381
G1 X65.393 Y64.073 E0.07062
;WIPE_START
M204 S1000
M73 P80 R0
G1 X65.322 Y63.645 F10800
;WIPE_END
G1 Z0.6 F720
; acceleration to travel
M204 S1500
G1 X69.28 Y59.837 F10800
; decel to extrusion
M204 S800
G1 X71.391 Y57.807
; end travel
G1 Z0.2 F720
;TYPE:Solid infill
;WIDTH:0.42453
G1 F1200
G1 X70.346 Y56.762 E0.28649
G1 X70.132 Y56.582 E0.05425
G1 X69.65 Y56.26 E0.112335
G1 X69.33 Y56.094 E0.07009
G1 X69.027 Y55.976 E0.0631
G1 X71.513 Y58.462 E0.68197
M73 P81 R0
G1 X71.668 Y58.889 E0.088175
G1 X71.743 Y59.225 E0.06672
G1 X68.292 Y55.774 E0.9465
G1 X68.063 Y55.724 E0.045495
G1 X67.692 Y55.707 E0.07207
G1 X71.809 Y59.824 E1.12925
G1 X71.787 Y60.335 E0.099195
M73 P82 R0
G1 X67.159 Y55.708 E1.26931
G1 X66.744 Y55.753 E0.081015
M73 P83 R0
G1 X66.684 Y55.766 E0.011795
G1 X71.727 Y60.809 E1.38326
G1 X71.665 Y61.124 E0.062145
G1 X71.627 Y61.243 E0.024195
G1 X66.262 Y55.878 E1.471505
G1 X65.871 Y56.02 E0.0807
M73 P84 R0
G1 X71.487 Y61.636 E1.540385
G1 X71.413 Y61.816 E0.037835
M73 P85 R0
G1 X71.314 Y61.996 E0.039765
G1 X65.504 Y56.186 E1.59363
G1 X65.176 Y56.366 E0.07257
M73 P86 R0
G1 X65.161 Y56.376 E0.003515
G1 X71.123 Y62.338 E1.63513
G1 X70.891 Y62.639 E0.07376
M73 P87 R0
G1 X64.851 Y56.599 E1.656665
G1 X64.573 Y56.854 E0.0732
G1 X70.655 Y62.937 E1.66832
G1 X70.377 Y63.192 E0.0732
M73 P88 R0
G1 X64.297 Y57.112 E1.667595
G1 X64.082 Y57.368 E0.064815
M73 P89 R0
G1 X64.057 Y57.405 E0.00873
G1 X70.096 Y63.444 E1.65626
G1 X69.824 Y63.634 E0.064315
M73 P90 R0
G1 X69.778 Y63.659 E0.010205
G1 X63.844 Y57.725 E1.62769
G1 X63.76 Y57.85 E0.02904
M73 P91 R0
G1 X63.649 Y58.064 E0.04682
G1 X69.434 Y63.848 E1.58663
G1 X69.322 Y63.91 E0.024785
M73 P92 R0
G1 X69.058 Y64.006 E0.054445
G1 X63.49 Y58.438 E1.52726
G1 X63.386 Y58.704 E0.055505
G1 X63.356 Y58.838 E0.02648
G1 X68.667 Y64.148 E1.45655
G1 X68.616 Y64.166 E0.01039
M73 P93 R0
G1 X68.221 Y64.236 E0.07777
G1 X63.26 Y59.274 E1.360945
G1 X63.222 Y59.443 E0.033505
M73 P94 R0
G1 X63.196 Y59.744 E0.058585
G1 X67.752 Y64.3 E1.249565
G1 X67.304 Y64.309 E0.086785
G1 X67.221 Y64.302 E0.016245
G1 X63.201 Y60.282 E1.102565
G1 X63.203 Y60.377 E0.01846
M73 P95 R0
G1 X63.298 Y60.912 E0.105285
G1 X66.584 Y64.198 E0.90136
G1 X66.204 Y64.114 E0.075385
G1 X65.815 Y63.963 E0.080975
M73 P96 R0
G1 X63.252 Y61.4 E0.70298
M204 S1000
G1 Z0.6 F720
; stop printing object Validation 2(2).stl id:0 copy 0
M107
;TYPE:Custom
; Filament-specific end gcode
; total layers count = 1
G4 ; wait
M221 S100 ; reset flow
M900 K0 ; reset LA

;M104 S0 ; turn off temperature
;M140 S0 ; turn off heatbed
M107 ; turn off fan
G1 Z5.2 ; Move print head up
G1 X0 Y100 F3000 ; home X axis
M84 ; disable motors
M73 P100 R0
; filament used [mm] = 227.23
; filament used [cm3] = 0.04
; filament used [g] = 0.06
; filament cost = 0.00
; total filament used [g] = 0.06
; total filament cost = 0.00
; total layers count = 1
; estimated printing time (normal mode) = 54s

; SuperSlicer_config = begin
; allow_empty_layers = 0
; avoid_crossing_not_first_layer = 1
; avoid_crossing_perimeters = 0
; avoid_crossing_perimeters_max_detour = 0
; bed_custom_model = 
; bed_custom_texture = 
; bed_shape = 0x0,135x0,135x135,0x135
; bed_temperature = 0
; before_layer_gcode = ;BEFORE_LAYER_CHANGE\nG92 E0.0\n;[layer_z]\n\n
; between_objects_gcode = 
; bottom_fill_pattern = monotonic
; bottom_solid_layers = 4
; bottom_solid_min_thickness = 0.5
; bridge_acceleration = 1000
; bridge_angle = 0
; bridge_fan_speed = 100
; bridge_flow_ratio = 95%
; bridge_internal_acceleration = 0
; bridge_internal_fan_speed = -1
; bridge_overlap = 75%
; bridge_overlap_min = 60%
; bridge_speed = 25
; bridge_speed_internal = 150%
; bridge_type = flow
; bridged_infill_margin = 200%
; brim_acceleration = 0
; brim_ears = 0
; brim_ears_detection_length = 1
; brim_ears_max_angle = 125
; brim_ears_pattern = concentric
