; generated by SuperSlicer 2.4 on 2024-06-11 at 10:44:29 UTC


;
;

;
;
; 

; external perimeters extrusion width = 0.42mm
; perimeters extrusion width = 0.44mm
; infill extrusion width = 0.45mm
; solid infill extrusion width = 0.45mm
; top infill extrusion width = 0.40mm
; first layer extrusion width = 0.42mm

; object:{"name":"Validation 2","id":"Validation 2.stl id:0 copy 0","object_center":[67.500000,67.500000,0.000000],"boundingbox_center":[67.500000,67.500000,0.100000],"boundingbox_size":[35.000000,35.000000,0.200000]}
; plater:{"center":[67.500000,67.500000,0.000000],"boundingbox_center":[67.500000,67.500000,0.100000],"boundingbox_size":[35.000000,35.000000,0.200000]}

M73 P0 R2
M204 P1250 T1500 ; sets acceleration (P, T), mm/sec^2
;TYPE:Custom
SET_PRINT_STATS_INFO TOTAL_LAYER=1
M862.3 P "MK3S" ; printer model check
M862.1 P0.4 ; nozzle diameter check
M115 U3.10.1 ; tell printer latest fw version
G90 ; use absolute coordinates
M83 ; extruder relative mode
;M104 S0 ; set extruder temp
;M140 S0 ; set bed temp
;M190 S0 ; wait for bed temp
;M109 S0 ; wait for extruder temp
G28 W ; home all without mesh bed level
; G80 ; mesh bed leveling
;G1 Z0.2 F720
;G1 Y-3 F1000 ; go outside print area
;G92 E0
;G1 X60 E9 F1000 ; intro line
;G1 X100 E12.5 F1000 ; intro line
;G92 E0
M221 S95

; Don't change E values below. Excessive value can damage the printer.

M107
G21 ; set units to millimeters
G90 ; use absolute coordinates
M83 ; use relative distances for extrusion
M900 K0.05 ; Filament gcode LA 1.5
M900 K30 ; Filament gcode LA 1.0
;_TOOLCHANGE 0
M107
;LAYER_CHANGE
;Z:0.2
;HEIGHT:0.2
;BEFORE_LAYER_CHANGE
G92 E0.0
;0.2


G1 Z0.4 F720
;AFTER_LAYER_CHANGE
;0.2
SET_PRINT_STATS_INFO CURRENT_LAYER=1
G1 Z0.6
; printing object Validation 2.stl id:0 copy 0
M204 S800
M73 P13 R2
G1 X55.416 Y55.416 F10800
G1 Z0.2 F720
;TYPE:External perimeter
;WIDTH:0.42
G1 F1200
G1 X55.954 Y54.9 E0.28614
G1 X56.515 Y54.408 E0.28612
G1 X57.096 Y53.942 E0.28615
G1 X57.698 Y53.501 E0.28615
G1 X58.318 Y53.087 E0.28611
G1 X58.955 Y52.7 E0.28615
M73 P14 R2
G1 X59.609 Y52.341 E0.28613
G1 X60.278 Y52.011 E0.28615
G1 X60.96 Y51.711 E0.28612
G1 X61.655 Y51.441 E0.28614
G1 X62.361 Y51.201 E0.28614
G1 X63.077 Y50.992 E0.28613
G1 X63.801 Y50.815 E0.28613
G1 X64.532 Y50.67 E0.28614
G1 X65.269 Y50.556 E0.28614
G1 X66.011 Y50.475 E0.28614
G1 X66.753 Y50.426 E0.28555
G1 X67.873 Y50.418 E0.42969
G1 X68.991 Y50.475 E0.42971
G1 X69.731 Y50.556 E0.28555
G1 X70.468 Y50.67 E0.28614
G1 X71.199 Y50.815 E0.28614
G1 X71.923 Y50.992 E0.28613
G1 X72.639 Y51.201 E0.28613
G1 X73.345 Y51.441 E0.28615
G1 X74.04 Y51.711 E0.28614
G1 X74.722 Y52.011 E0.28613
G1 X75.391 Y52.341 E0.28614
G1 X76.045 Y52.7 E0.28614
G1 X76.682 Y53.087 E0.28615
G1 X77.302 Y53.501 E0.28611
G1 X77.904 Y53.942 E0.28615
G1 X78.485 Y54.408 E0.28615
G1 X79.046 Y54.9 E0.28612
G1 X79.584 Y55.416 E0.28614
G1 X80.1 Y55.954 E0.28614
G1 X80.592 Y56.515 E0.28612
G1 X81.058 Y57.096 E0.28616
G1 X81.499 Y57.698 E0.28614
G1 X81.913 Y58.318 E0.28611
G1 X82.3 Y58.955 E0.28615
G1 X82.659 Y59.609 E0.28613
G1 X82.989 Y60.278 E0.28615
G1 X83.289 Y60.96 E0.28612
G1 X83.559 Y61.655 E0.28614
M73 P15 R2
G1 X83.799 Y62.361 E0.28614
G1 X84.008 Y63.077 E0.28613
G1 X84.185 Y63.801 E0.28613
G1 X84.33 Y64.532 E0.28615
G1 X84.444 Y65.269 E0.28614
G1 X84.525 Y66.011 E0.28614
G1 X84.574 Y66.755 E0.28614
G1 X84.59 Y67.5 E0.28613
G1 X84.574 Y68.245 E0.28613
G1 X84.525 Y68.989 E0.28614
G1 X84.444 Y69.731 E0.28614
G1 X84.33 Y70.468 E0.28614
G1 X84.185 Y71.199 E0.28615
G1 X84.008 Y71.923 E0.28613
G1 X83.799 Y72.639 E0.28613
G1 X83.559 Y73.345 E0.28615
G1 X83.289 Y74.04 E0.28614
G1 X82.989 Y74.722 E0.28613
G1 X82.659 Y75.391 E0.28614
G1 X82.3 Y76.045 E0.28614
G1 X81.913 Y76.682 E0.28615
G1 X81.499 Y77.302 E0.28611
G1 X81.058 Y77.904 E0.28615
G1 X80.592 Y78.485 E0.28615
G1 X80.1 Y79.046 E0.28612
G1 X79.584 Y79.584 E0.28614
G1 X79.046 Y80.1 E0.28614
G1 X78.485 Y80.592 E0.28612
G1 X77.904 Y81.058 E0.28616
G1 X77.302 Y81.499 E0.28614
G1 X76.682 Y81.913 E0.28611
G1 X76.045 Y82.3 E0.28615
G1 X75.391 Y82.659 E0.28613
G1 X74.722 Y82.989 E0.28615
G1 X74.04 Y83.289 E0.28612
G1 X73.345 Y83.559 E0.28614
G1 X72.639 Y83.799 E0.28615
G1 X71.923 Y84.008 E0.28613
G1 X71.199 Y84.185 E0.28613
G1 X70.468 Y84.33 E0.28614
M73 P16 R2
G1 X69.731 Y84.444 E0.28614
G1 X68.989 Y84.525 E0.28614
G1 X68.245 Y84.574 E0.28614
G1 X67.5 Y84.59 E0.28613
G1 X66.755 Y84.574 E0.28613
G1 X66.011 Y84.525 E0.28614
G1 X65.269 Y84.444 E0.28614
G1 X64.532 Y84.33 E0.28614
G1 X63.801 Y84.185 E0.28614
G1 X63.077 Y84.008 E0.28613
G1 X62.361 Y83.799 E0.28613
G1 X61.655 Y83.559 E0.28614
G1 X60.96 Y83.289 E0.28614
G1 X60.278 Y82.989 E0.28613
G1 X59.609 Y82.659 E0.28614
G1 X58.955 Y82.3 E0.28614
G1 X58.318 Y81.913 E0.28615
G1 X57.698 Y81.499 E0.28611
G1 X57.096 Y81.058 E0.28615
G1 X56.515 Y80.592 E0.28615
G1 X55.954 Y80.1 E0.28612
G1 X55.416 Y79.584 E0.28614
G1 X54.9 Y79.046 E0.28614
G1 X54.408 Y78.485 E0.28612
G1 X53.942 Y77.904 E0.28615
G1 X53.501 Y77.302 E0.28615
G1 X53.087 Y76.682 E0.28611
G1 X52.7 Y76.045 E0.28615
G1 X52.341 Y75.391 E0.28613
G1 X52.011 Y74.722 E0.28615
G1 X51.711 Y74.04 E0.28612
G1 X51.441 Y73.345 E0.28614
G1 X51.201 Y72.639 E0.28615
G1 X50.992 Y71.923 E0.28613
G1 X50.815 Y71.199 E0.28613
G1 X50.67 Y70.468 E0.28615
G1 X50.556 Y69.731 E0.28614
G1 X50.475 Y68.989 E0.28614
G1 X50.426 Y68.245 E0.28614
G1 X50.41 Y67.5 E0.28613
M73 P17 R2
G1 X50.426 Y66.755 E0.28613
G1 X50.475 Y66.011 E0.28614
G1 X50.556 Y65.269 E0.28614
G1 X50.67 Y64.532 E0.28614
G1 X50.815 Y63.801 E0.28615
G1 X50.992 Y63.077 E0.28613
G1 X51.201 Y62.361 E0.28613
G1 X51.441 Y61.655 E0.28614
G1 X51.711 Y60.96 E0.28614
G1 X52.011 Y60.278 E0.28613
G1 X52.341 Y59.609 E0.28614
G1 X52.7 Y58.955 E0.28614
G1 X53.087 Y58.318 E0.28615
G1 X53.501 Y57.698 E0.28611
G1 X53.942 Y57.096 E0.28615
G1 X54.408 Y56.515 E0.28615
G1 X54.9 Y55.954 E0.28612
G1 X55.374 Y55.459 E0.26312
;WIPE_START
M204 S1000
G1 X55.801 Y55.522 F10800
;WIPE_END
G1 Z0.6 F720
; acceleration to travel
M204 S1500
G1 X72.267 Y56.669 F10800
; decel to extrusion
M204 S800
G1 X81.049 Y57.281
; end travel
G1 Z0.2 F720
;TYPE:Solid infill
;WIDTH:0.420043
G1 F1200
G1 X79.264 Y55.496 E0.96894
G1 X78.306 Y54.617 E0.49884
G1 X77.738 Y54.162 E0.27926
G1 X76.601 Y53.365 E0.53303
G1 X81.635 Y58.399 E2.73222
M73 P18 R2
G1 X81.681 Y58.466 E0.03108
G1 X82.382 Y59.68 E0.5383
G1 X75.32 Y52.618 E3.83336
G1 X75.264 Y52.585 E0.02469
G1 X74.309 Y52.14 E0.40445
G1 X82.86 Y60.691 E4.64117
G1 X83.034 Y61.065 E0.15851
M73 P19 R2
G1 X83.225 Y61.59 E0.21415
G1 X73.41 Y51.775 E5.32726
G1 X72.572 Y51.47 E0.34244
G1 X83.53 Y62.428 E5.94796
G1 X83.728 Y63.159 E0.29041
M73 P20 R2
G1 X71.841 Y51.272 E6.45152
G1 X71.136 Y51.083 E0.28008
M73 P20 R1
G1 X71.115 Y51.079 E0.00842
G1 X83.92 Y63.884 E6.95014
G1 X84.034 Y64.532 E0.25231
M73 P21 R1
G1 X70.449 Y50.947 E7.37341
G1 X70.423 Y50.941 E0.01034
M73 P22 R1
G1 X69.833 Y50.864 E0.22829
G1 X84.148 Y65.179 E7.76981
G1 X84.171 Y65.305 E0.04919
G1 X84.212 Y65.776 E0.18125
G1 X69.219 Y50.783 E8.13756
G1 X68.966 Y50.75 E0.0979
M73 P23 R1
G1 X68.635 Y50.733 E0.12702
G1 X84.263 Y66.36 E8.48197
G1 X84.298 Y66.767 E0.15658
M73 P24 R1
G1 X84.298 Y66.929 E0.06233
G1 X68.074 Y50.704 E8.80624
G1 X67.867 Y50.694 E0.07948
M73 P25 R1
G1 X67.532 Y50.696 E0.1284
G1 X84.298 Y67.462 E9.10008
G1 X84.298 Y67.996 E0.20466
G1 X67.003 Y50.7 E9.38743
G1 X66.763 Y50.702 E0.09201
M73 P26 R1
G1 X66.489 Y50.72 E0.10533
G1 X84.28 Y68.511 E9.65642
G1 X84.251 Y68.965 E0.17488
M73 P27 R1
G1 X84.246 Y69.009 E0.01697
G1 X65.991 Y50.754 E9.90828
G1 X65.51 Y50.807 E0.18557
M73 P28 R1
G1 X84.193 Y69.49 E10.14058
G1 X84.171 Y69.692 E0.07786
M73 P29 R1
G1 X84.125 Y69.955 E0.10254
G1 X65.045 Y50.875 E10.35568
G1 X64.592 Y50.955 E0.17667
M73 P30 R1
G1 X84.045 Y70.408 E10.55835
G1 X83.965 Y70.862 E0.17667
M73 P31 R1
G1 X64.138 Y51.035 E10.76102
G1 X63.861 Y51.084 E0.10825
M73 P32 R1
G1 X63.698 Y51.128 E0.06472
G1 X83.872 Y71.302 E10.94992
G1 X83.759 Y71.723 E0.16711
M73 P33 R1
G1 X63.277 Y51.241 E11.11703
G1 X62.857 Y51.353 E0.16711
M73 P34 R1
G1 X83.647 Y72.143 E11.28413
G1 X83.534 Y72.563 E0.16696
M73 P35 R1
G1 X62.437 Y51.466 E11.45065
G1 X62.046 Y51.609 E0.15968
M73 P36 R1
G1 X83.391 Y72.954 E11.58562
G1 X83.249 Y73.345 E0.15968
M73 P37 R1
G1 X61.655 Y51.751 E11.72058
G1 X61.264 Y51.893 E0.15968
M73 P38 R1
G1 X83.107 Y73.736 E11.85555
G1 X83.034 Y73.935 E0.081
M73 P39 R1
G1 X82.951 Y74.114 E0.07589
G1 X60.886 Y52.049 E11.97592
G1 X60.523 Y52.219 E0.15401
M73 P40 R1
G1 X82.781 Y74.477 E12.08127
G1 X82.612 Y74.841 E0.15401
M73 P41 R1
G1 X60.159 Y52.388 E12.18662
G1 X59.795 Y52.558 E0.15401
M73 P42 R1
G1 X82.442 Y75.205 E12.29196
G1 X82.415 Y75.264 E0.02505
M73 P43 R1
G1 X82.251 Y75.547 E0.12545
G1 X59.453 Y52.749 E12.37404
G1 X59.115 Y52.944 E0.14983
M73 P44 R1
G1 X82.056 Y75.885 E12.4516
G1 X81.861 Y76.223 E0.14983
M73 P45 R1
G1 X58.777 Y53.139 E12.52915
G1 X58.466 Y53.319 E0.13788
M73 P46 R1
G1 X58.441 Y53.336 E0.01171
G1 X81.664 Y76.559 E12.60459
G1 X81.444 Y76.873 E0.14695
M73 P48 R1
G1 X58.127 Y53.556 E12.65563
G1 X57.813 Y53.776 E0.14695
M73 P49 R1
G1 X81.224 Y77.187 E12.70666
G1 X81.005 Y77.5 E0.14695
M73 P50 R1
G1 X57.5 Y53.995 E12.7577
G1 X57.262 Y54.162 E0.11154
M73 P51 R1
G1 X57.19 Y54.219 E0.03508
G1 X80.781 Y77.81 E12.80408
G1 X80.543 Y78.106 E0.14559
M73 P52 R1
G1 X56.894 Y54.457 E12.83577
G1 X56.694 Y54.617 E0.0986
M73 P53 R1
G1 X56.604 Y54.7 E0.04675
G1 X80.3 Y78.396 E12.86132
G1 X80.045 Y78.674 E0.14486
M73 P54 R1
G1 X56.326 Y54.955 E12.87396
G1 X56.048 Y55.21 E0.14486
M73 P55 R1
G1 X79.79 Y78.952 E12.88659
G1 X79.535 Y79.231 E0.14486
M73 P57 R1
G1 X55.769 Y55.465 E12.89923
G1 X55.61 Y55.61 E0.08279
M73 P58 R1
;over
G1 X55.501 Y55.73 E0.1086225
G1 X79.27 Y79.499 E22.57682
G1 X78.992 Y79.754 E0.253505
M73 P59 R1
G1 X55.246 Y56.008 E22.5547
G1 X54.991 Y56.286 E0.253505
M73 P60 R0
G1 X78.714 Y80.009 E22.53258
G1 X78.436 Y80.264 E0.253505
M73 P61 R0
G1 X54.736 Y56.564 E22.5104775
G1 X54.617 Y56.694 E0.1180725
M73 P62 R0
G1 X54.491 Y56.852 E0.136115
G1 X78.148 Y80.509 E22.4705425
G1 X77.852 Y80.747 E0.2547825
M73 P63 R0
G1 X54.253 Y57.148 E22.4150675
G1 X54.162 Y57.262 E0.097825
M73 P65 R0
G1 X54.027 Y57.455 E0.1584275
G1 X77.545 Y80.973 E22.33875
G1 X77.232 Y81.193 E0.2571625
M73 P66 R0
G1 X53.807 Y57.768 E22.24943
G1 X53.587 Y58.082 E0.2571625
M73 P67 R0
G1 X76.918 Y81.413 E22.160127499999998
G1 X76.604 Y81.632 E0.2571625
M73 P68 R0
G1 X53.368 Y58.396 E22.0708075
G1 X53.319 Y58.466 E0.0572775
M73 P69 R0
G1 X53.167 Y58.728 E0.203805
G1 X76.272 Y81.833 E21.945420000000002
G1 X75.934 Y82.028 E0.262185
M73 P70 R0
G1 X52.972 Y59.066 E21.809707500000002
G1 X52.777 Y59.405 E0.262185
M73 P71 R0
G1 X75.595 Y82.223 E21.6739775
G1 X75.257 Y82.418 E0.26232500000000003
M73 P72 R0
G1 X52.582 Y59.743 E21.537565
G1 X52.406 Y60.1 E0.2674525
M73 P73 R0
G1 X74.893 Y82.587 E21.359415
M73 P74 R0
G1 X74.53 Y82.757 E0.2695175
M73 P75 R0
G1 X52.233 Y60.461 E21.177765
G1 X52.077 Y60.838 E0.27412000000000003
M73 P76 R0
G1 X74.166 Y82.927 E20.98068
G1 X73.935 Y83.034 E0.1713425
M73 P77 R0
G1 X73.792 Y83.086 E0.1017975
G1 X51.921 Y61.215 E20.774162500000003
G1 X51.765 Y61.592 E0.27412000000000003
M73 P78 R0
G1 X73.401 Y83.229 E20.55116
G1 X73.01 Y83.371 E0.27943999999999997
M73 P79 R0
G1 X51.625 Y61.986 E20.3124425
G1 X51.497 Y62.391 E0.2855125
M73 P80 R0
G1 X72.619 Y83.513 E20.0625075
G1 X72.556 Y83.536 E0.045115
M73 P81 R0
G1 X72.203 Y83.631 E0.24522750000000001
G1 X51.369 Y62.797 E19.789
G1 X51.259 Y63.148 E0.24757250000000003
M73 P82 R0
G1 X51.246 Y63.206 E0.0399175
G1 X71.783 Y83.743 E19.507022499999998
G1 X71.362 Y83.856 E0.2924425
M73 P83 R0
G1 X51.149 Y63.643 E19.1994425
G1 X51.052 Y64.079 E0.3002825
M73 P84 R0
G1 X70.926 Y83.953 E18.877267500000002
G1 X70.473 Y84.033 E0.30917249999999996
M73 P85 R0
G1 X50.955 Y64.516 E18.53859
G1 X50.941 Y64.58 E0.044414999999999996
M73 P86 R0
G1 X50.888 Y64.982 E0.27200250000000004
G1 X70.02 Y84.113 E18.1718075
G1 X69.692 Y84.171 E0.22366750000000002
M73 P87 R0
G1 X69.559 Y84.186 E0.08981
G1 X50.826 Y65.453 E17.7929675
G1 X50.764 Y65.924 E0.319235
M73 P88 R0
G1 X69.078 Y84.238 E17.3953675
G1 X68.968 Y84.25 E0.07413
G1 X68.574 Y84.267 E0.26510750000000005
G1 X50.733 Y66.426 E16.9466325
M73 P89 R0
G1 X50.71 Y66.937 E0.34350749999999997
G1 X68.063 Y84.29 E16.4824975
G1 X67.552 Y84.312 E0.34350749999999997
M73 P90 R0
G1 X50.688 Y67.448 E16.0183625
G1 X50.686 Y67.5 E0.035105000000000004
M73 P91 R0
G1 X50.707 Y68.001 E0.33655999999999997
G1 X66.999 Y84.293 E15.474655
G1 X66.442 Y84.268 E0.3748675
M73 P92 R0
G1 X50.732 Y68.558 E14.9218825
G1 X50.75 Y68.968 E0.2758
M73 P93 R0
G1 X50.767 Y69.127 E0.106925
G1 X65.873 Y84.233 E14.3484075
G1 X65.308 Y84.171 E0.381745
G1 X65.272 Y84.165 E0.024955
G1 X50.835 Y69.728 E13.71209
G1 X50.95 Y70.376 E0.44154249999999995
M73 P94 R0
G1 X64.624 Y84.05 E12.988692499999999
G1 X63.977 Y83.936 E0.44154249999999995
M73 P95 R0
G1 X51.064 Y71.023 E12.2653125
G1 X51.084 Y71.139 E0.0791875
G1 X51.244 Y71.737 E0.4156775
G1 X63.263 Y83.756 E11.4156
G1 X62.534 Y83.56 E0.50652
M73 P96 R0
G1 X51.44 Y72.466 E10.53829
G1 X51.464 Y72.556 E0.0629825
G1 X51.731 Y73.29 E0.5247550000000001
M73 P97 R0
G1 X61.71 Y83.269 E9.478034999999998
G1 X61.065 Y83.034 E0.46046000000000004
G1 X60.834 Y82.927 E0.1715175
G1 X52.073 Y74.166 E8.321057499999998
G1 X52.539 Y75.165 E0.7404775
G1 X59.835 Y82.461 E6.9293875
G1 X59.736 Y82.415 E0.073185
M73 P98 R0
G1 X58.599 Y81.758 E0.88179
G1 X53.242 Y76.401 E5.088335
G1 X53.319 Y76.534 E0.103425
G1 X54.162 Y77.738 E0.9872099999999999
G1 X54.617 Y78.306 E0.488705
G1 X54.66 Y78.353 E0.0427
G1 X57.535 Y81.227 E2.7305075
M204 S1000
G1 Z0.6 F720
; stop printing object Validation 2.stl id:0 copy 0
M107
;TYPE:Custom
; Filament-specific end gcode
; total layers count = 1
G4 ; wait
M221 S100 ; reset flow
M900 K0 ; reset LA

;M104 S0 ; turn off temperature
;M140 S0 ; turn off heatbed
M107 ; turn off fan
G1 Z5.2 ; Move print head up
G1 X0 Y100 F3000 ; home X axis
M84 ; disable motors
M73 P100 R0
; filament used [mm] = 965.00
; filament used [cm3] = 0.19
; filament used [g] = 0.24
; filament cost = 0.01
; total filament used [g] = 0.24
; total filament cost = 0.01
; total layers count = 1
; estimated printing time (normal mode) = 2m 29s

; SuperSlicer_config = begin
; allow_empty_layers = 0
; avoid_crossing_not_first_layer = 1
; avoid_crossing_perimeters = 0
; avoid_crossing_perimeters_max_detour = 0
; bed_custom_model = 
; bed_custom_texture = 
; bed_shape = 0x0,135x0,135x135,0x135
; bed_temperature = 0
; before_layer_gcode = ;BEFORE_LAYER_CHANGE\nG92 E0.0\n;[layer_z]\n\n
; between_objects_gcode = 
; bottom_fill_pattern = monotonic
; bottom_solid_layers = 4
; bottom_solid_min_thickness = 0.5
; bridge_acceleration = 1000
; bridge_angle = 0
; bridge_fan_speed = 100
; bridge_flow_ratio = 95%
; bridge_internal_acceleration = 0
; bridge_internal_fan_speed = -1
; bridge_overlap = 75%
; bridge_overlap_min = 60%
; bridge_speed = 25
; bridge_speed_internal = 150%
; bridge_type = flow
; bridged_infill_margin = 200%
; brim_acceleration = 0
; brim_ears = 0
; brim_ears_detection_length = 1
; brim_ears_max_angle = 125
; brim_ears_pattern = concentric
; brim_inside_holes = 0
; brim_separation = 0.1
; brim_speed = 50%
; brim_width = 0
; brim_width_interior = 0
; chamber_temperature = 0
; clip_multipart_objects = 1
; color_change_gcode = M600\nG1 E0.4 F1500 ; prime after color change
; compatible_printers_condition_cummulative = "printer_notes=~/.*PRINTER_VENDOR_PRUSA3D.*/ and printer_notes=~/.*PRINTER_MODEL_MK3.*/ and nozzle_diameter[0]==0.4";"nozzle_diameter[0]!=0.8 and ! (printer_notes=~/.*PRINTER_VENDOR_PRUSA3D.*/ and printer_notes=~/.*PRINTER_MODEL_MK(2.5|3).*/ and single_extruder_multi_material)"
; complete_objects = 0
; complete_objects_one_brim = 0
; complete_objects_one_skirt = 0
; complete_objects_sort = object
; cooling_tube_length = 5
; cooling_tube_retraction = 91.5
; curve_smoothing_angle_concave = 0
; curve_smoothing_angle_convex = 0
; curve_smoothing_cutoff_dist = 2
; curve_smoothing_precision = 0
