; generated by SuperSlicer 2.4 on 2024-06-11 at 10:45:08 UTC


;
;

;
;
; 

; external perimeters extrusion width = 0.42mm
; perimeters extrusion width = 0.44mm
; infill extrusion width = 0.45mm
; solid infill extrusion width = 0.45mm
; top infill extrusion width = 0.40mm
; first layer extrusion width = 0.42mm

; object:{"name":"Control Validation","id":"Control Validation.stl id:0 copy 0","object_center":[67.500000,67.500000,0.000000],"boundingbox_center":[67.500000,67.500000,0.100000],"boundingbox_size":[60.000000,0.500000,0.200000]}
; plater:{"center":[67.500000,67.500000,0.000000],"boundingbox_center":[67.500000,67.500000,0.100000],"boundingbox_size":[60.000000,0.500000,0.200000]}

M73 P0 R0
M204 P1250 T1500 ; sets acceleration (P, T), mm/sec^2
;TYPE:Custom
SET_PRINT_STATS_INFO TOTAL_LAYER=1
M862.3 P "MK3S" ; printer model check
M862.1 P0.4 ; nozzle diameter check
M115 U3.10.1 ; tell printer latest fw version
G90 ; use absolute coordinates
M83 ; extruder relative mode
;M104 S0 ; set extruder temp
;M140 S0 ; set bed temp
;M190 S0 ; wait for bed temp
;M109 S0 ; wait for extruder temp
G28 W ; home all without mesh bed level
; G80 ; mesh bed leveling
;G1 Z0.2 F720
;G1 Y-3 F1000 ; go outside print area
;G92 E0
;G1 X60 E9 F1000 ; intro line
;G1 X100 E12.5 F1000 ; intro line
;G92 E0
M221 S95

; Don't change E values below. Excessive value can damage the printer.

M107
G21 ; set units to millimeters
G90 ; use absolute coordinates
M83 ; use relative distances for extrusion
M900 K0.05 ; Filament gcode LA 1.5
M900 K30 ; Filament gcode LA 1.0
;_TOOLCHANGE 0
M107
;LAYER_CHANGE
;Z:0.2
;HEIGHT:0.2
;BEFORE_LAYER_CHANGE
G92 E0.0
;0.2


G1 Z0.4 F720
;AFTER_LAYER_CHANGE
;0.2
SET_PRINT_STATS_INFO CURRENT_LAYER=1
G1 Z0.6
; printing object Control Validation.stl id:0 copy 0
M204 S800
M73 P75 R0
G1 X97.5 Y67.5 F10800
G1 Z0.2 F720
;TYPE:Thin wall
;WIDTH:0.186364
M73 P79 R0
G1 F900
G1 X97.407 Y67.5 E0.01363
;WIDTH:0.437273
G1 X97.36 Y67.5 E0.01873
;WIDTH:0.5
;G1 X67.64 Y67.5 E14
G1 X96.37 Y67.5 E0.47
G1 X95.38 Y67.5 E0.47
G1 X94.39 Y67.5 E0.47
G1 X93.40 Y67.5 E0.47
G1 X92.41 Y67.5 E0.47
G1 X91.42 Y67.5 E0.47
G1 X90.43 Y67.5 E0.47
G1 X89.43 Y67.5 E0.47
G1 X88.44 Y67.5 E0.47
G1 X87.45 Y67.5 E0.47
G1 X86.46 Y67.5 E0.47
G1 X85.47 Y67.5 E0.47
G1 X84.48 Y67.5 E0.47
G1 X83.49 Y67.5 E0.47
G1 X82.50 Y67.5 E0.47
G1 X81.51 Y67.5 E0.47
G1 X80.52 Y67.5 E0.47
G1 X79.53 Y67.5 E0.47
G1 X78.54 Y67.5 E0.47
G1 X77.55 Y67.5 E0.47
G1 X76.56 Y67.5 E0.47
G1 X75.57 Y67.5 E0.47
G1 X74.57 Y67.5 E0.47
G1 X73.58 Y67.5 E0.47
G1 X72.59 Y67.5 E0.47
G1 X71.60 Y67.5 E0.47
G1 X70.61 Y67.5 E0.47
G1 X69.62 Y67.5 E0.47
G1 X68.63 Y67.5 E0.47
G1 X67.64 Y67.5 E0.47
;under
;G1 X37.64 Y67.5 E4
G1 X67.64 Y67.5 E0.13
G1 X66.64 Y67.5 E0.13
G1 X65.64 Y67.5 E0.13
G1 X64.64 Y67.5 E0.13
G1 X63.64 Y67.5 E0.13
G1 X62.64 Y67.5 E0.13
G1 X61.64 Y67.5 E0.13
G1 X60.64 Y67.5 E0.13
G1 X59.64 Y67.5 E0.13
G1 X58.64 Y67.5 E0.13
G1 X57.64 Y67.5 E0.13
G1 X56.64 Y67.5 E0.13
G1 X55.64 Y67.5 E0.13
G1 X54.64 Y67.5 E0.13
G1 X53.64 Y67.5 E0.13
G1 X52.64 Y67.5 E0.13
G1 X51.64 Y67.5 E0.13
G1 X50.64 Y67.5 E0.13
G1 X49.64 Y67.5 E0.13
G1 X48.64 Y67.5 E0.13
G1 X47.64 Y67.5 E0.13
G1 X46.64 Y67.5 E0.13
G1 X45.64 Y67.5 E0.13
G1 X44.64 Y67.5 E0.13
G1 X43.64 Y67.5 E0.13
G1 X42.64 Y67.5 E0.13
G1 X41.64 Y67.5 E0.13
G1 X40.64 Y67.5 E0.13
G1 X39.64 Y67.5 E0.13
G1 X38.64 Y67.5 E0.13
G1 X37.64 Y67.5 E0.13
;WIDTH:0.353636
G1 X37.547 Y67.5 E0.02951
;WIDTH:0.102727
M73 P94 R0
G1 X37.5 Y67.5 E0.00284
M204 S1000
G1 Z0.6 F720
; stop printing object Control Validation.stl id:0 copy 0
M107
;TYPE:Custom
; Filament-specific end gcode
; total layers count = 1
G4 ; wait
M221 S100 ; reset flow
M900 K0 ; reset LA

;M104 S0 ; turn off temperature
;M140 S0 ; turn off heatbed
M107 ; turn off fan
G1 Z5.2 ; Move print head up
G1 X0 Y100 F3000 ; home X axis
M84 ; disable motors
M73 P100 R0
; filament used [mm] = 27.84
; filament used [cm3] = 0.01
; filament used [g] = 0.01
; filament cost = 0.00
; total filament used [g] = 0.01
; total filament cost = 0.00
; total layers count = 1
; estimated printing time (normal mode) = 26s

; SuperSlicer_config = begin
; allow_empty_layers = 0
; avoid_crossing_not_first_layer = 1
; avoid_crossing_perimeters = 0
; avoid_crossing_perimeters_max_detour = 0
; bed_custom_model = 
; bed_custom_texture = 
; bed_shape = 0x0,135x0,135x135,0x135
; bed_temperature = 0
; before_layer_gcode = ;BEFORE_LAYER_CHANGE\nG92 E0.0\n;[layer_z]\n\n
; between_objects_gcode = 
; bottom_fill_pattern = monotonic
; bottom_solid_layers = 4
; bottom_solid_min_thickness = 0.5
; bridge_acceleration = 1000
; bridge_angle = 0
; bridge_fan_speed = 100
; bridge_flow_ratio = 95%
; bridge_internal_acceleration = 0
; bridge_internal_fan_speed = -1
; bridge_overlap = 75%
; bridge_overlap_min = 60%
; bridge_speed = 25
; bridge_speed_internal = 150%
; bridge_type = flow
; bridged_infill_margin = 200%
; brim_acceleration = 0
; brim_ears = 0
; brim_ears_detection_length = 1
; brim_ears_max_angle = 125
; brim_ears_pattern = concentric
; brim_inside_holes = 0
; brim_separation = 0.1
; brim_speed = 50%
; brim_width = 0
; brim_width_interior = 0
; chamber_temperature = 0
; clip_multipart_objects = 1
; color_change_gcode = M600\nG1 E0.4 F1500 ; prime after color change
; compatible_printers_condition_cummulative = "printer_notes=~/.*PRINTER_VENDOR_PRUSA3D.*/ and printer_notes=~/.*PRINTER_MODEL_MK3.*/ and nozzle_diameter[0]==0.4";"nozzle_diameter[0]!=0.8 and ! (printer_notes=~/.*PRINTER_VENDOR_PRUSA3D.*/ and printer_notes=~/.*PRINTER_MODEL_MK(2.5|3).*/ and single_extruder_multi_material)"
; complete_objects = 0
; complete_objects_one_brim = 0
; complete_objects_one_skirt = 0
; complete_objects_sort = object
; cooling_tube_length = 5
; cooling_tube_retraction = 91.5
; curve_smoothing_angle_concave = 0
; curve_smoothing_angle_convex = 0
; curve_smoothing_cutoff_dist = 2
; curve_smoothing_precision = 0
; default_acceleration = 1000
; default_filament_profile = "Prusament PLA"
; default_print_profile = 0.15mm QUALITY @MK3
; default_speed = 100
; deretract_speed = 0
; disable_fan_first_layers = 1
; dont_support_bridges = 0
; draft_shield = disabled
; duplicate_distance = 6
; end_filament_gcode = "; Filament-specific end gcode"
; end_gcode = ; total layers count = [total_layer_count]\nG4 ; wait\nM221 S100 ; reset flow\nM900 K0 ; reset LA\n{if print_settings_id=~/.*(DETAIL @MK3|QUALITY @MK3|@0.25 nozzle MK3).*/}M907 E538 ; reset extruder motor current{endif}\n;M104 S0 ; turn off temperature\n;M140 S0 ; turn off heatbed\nM107 ; turn off fan\n{if max_layer_z < max_print_height}G1 Z{z_offset+min(max_layer_z+5, max_print_height)}{endif} ; Move print head up\nG1 X0 Y100 F3000 ; home X axis\nM84 ; disable motors
; enforce_full_fill_volume = 1
; enforce_retract_first_layer = 1
; ensure_vertical_shell_thickness = 1
; exact_last_layer_height = 0
; external_infill_margin = 150%
; external_perimeter_acceleration = 0
; external_perimeter_cut_corners = 0%
; external_perimeter_extrusion_spacing = 0.4
; external_perimeter_extrusion_width = 
; external_perimeter_fan_speed = -1
; external_perimeter_overlap = 100%
; external_perimeter_speed = 25
; external_perimeters_first = 0
; external_perimeters_hole = 1
; external_perimeters_nothole = 1
; external_perimeters_vase = 0
; extra_loading_move = -2
; extra_perimeters = 0
; extra_perimeters_odd_layers = 0
; extra_perimeters_overhangs = 0
; extruder_clearance_height = 20
; extruder_clearance_radius = 45
; extruder_colour = ""
; extruder_fan_offset = 0%
; extruder_offset = 0x0
; extruder_temperature_offset = 0
; extrusion_axis = E
; extrusion_multiplier = 1
; extrusion_spacing = 
; extrusion_width = 0.45
; fan_always_on = 1
; fan_below_layer_time = 100
; fan_kickstart = 0
; fan_percentage = 0
; fan_speedup_overhangs = 1
; fan_speedup_time = 0
; feature_gcode = 
; filament_colour = #FF8000
; filament_cooling_final_speed = 3.4
; filament_cooling_initial_speed = 2.2
; filament_cooling_moves = 4
; filament_cooling_zone_pause = 0
; filament_cost = 25.4
; filament_custom_variables = ""
; filament_density = 1.24
; filament_diameter = 0.50022
; filament_dip_extraction_speed = 70
; filament_dip_insertion_speed = 33
; filament_enable_toolchange_part_fan = 0
; filament_enable_toolchange_temp = 0
; filament_load_time = 0
; filament_loading_speed = 28
; filament_loading_speed_start = 3
; filament_max_overlap = 100%
; filament_max_speed = 0
; filament_max_volumetric_speed = 15
; filament_max_wipe_tower_speed = 0
; filament_melt_zone_pause = 0
; filament_minimal_purge_on_wipe_tower = 15
; filament_notes = ""
; filament_ramming_parameters = "120 100 6.6 6.8 7.2 7.6 7.9 8.2 8.7 9.4 9.9 10.0| 0.05 6.6 0.45 6.8 0.95 7.8 1.45 8.3 1.95 9.7 2.45 10 2.95 7.6 3.45 7.6 3.95 7.6 4.45 7.6 4.95 7.6"
; filament_retract_length = 0
; filament_settings_id = Puredyne(New)
; filament_shrink = 100%
; filament_skinnydip_distance = 31
; filament_soluble = 0
; filament_spool_weight = 0
; filament_toolchange_delay = 0
; filament_toolchange_part_fan_speed = 50
; filament_toolchange_temp = 200
; filament_type = PLA
; filament_unload_time = 0
; filament_unloading_speed = 90
; filament_unloading_speed_start = 100
; filament_use_fast_skinnydip = 0
; filament_use_skinnydip = 0
; filament_vendor = Generic
; filament_wipe_advanced_pigment = 0.5
; fill_angle = 45
; fill_angle_increment = 0
; fill_density = 15%
; fill_pattern = gyroid
; fill_smooth_distribution = 10%
; fill_smooth_width = 50%
; fill_top_flow_ratio = 100%
; first_layer_acceleration = 800
; first_layer_acceleration_over_raft = 0
; first_layer_bed_temperature = 0
; first_layer_extrusion_spacing = 
; first_layer_extrusion_width = 0.42
; first_layer_flow_ratio = 100%
; first_layer_height = 0.2
; first_layer_infill_speed = 20
; first_layer_min_speed = 20
; first_layer_size_compensation = -0.2
; first_layer_size_compensation_layers = 1
; first_layer_speed = 20
; first_layer_speed_over_raft = 30
; first_layer_temperature = 0
; full_fan_speed_layer = 4
; fuzzy_skin = none
; fuzzy_skin_point_dist = 200%
; fuzzy_skin_thickness = 150%
; gap_fill_acceleration = 0
; gap_fill_enabled = 1
; gap_fill_flow_match_perimeter = 0%
; gap_fill_last = 0
; gap_fill_min_area = 100%
; gap_fill_overlap = 100%
; gap_fill_speed = 40
; gcode_comments = 0
; gcode_filename_illegal_char = [<>:"/\\\\|?*]
; gcode_flavor = klipper
; gcode_label_objects = 1
; gcode_precision_e = 5
; gcode_precision_xyz = 3
; gcode_resolution = 0
; gcode_substitutions = 
; high_current_on_filament_swap = 0
; hole_size_compensation = 0
; hole_size_threshold = 100
; hole_to_polyhole = 0
; hole_to_polyhole_threshold = 0.01
; hole_to_polyhole_twisted = 1
; host_type = octoprint
; infill_acceleration = 1000
; infill_anchor = 2.5
; infill_anchor_max = 12
; infill_connection = connected
; infill_connection_bottom = connected
; infill_connection_solid = connected
; infill_connection_top = connected
; infill_dense = 0
; infill_dense_algo = autoenlarged
; infill_every_layers = 1
; infill_extruder = 1
; infill_extrusion_spacing = 
; infill_extrusion_width = 0.45
; infill_first = 0
; infill_only_where_needed = 0
; infill_overlap = 25%
; infill_speed = 80
; inherits_cummulative = "0.20mm QUALITY @MK3";"Generic PLA";"Original Prusa i3 MK3S & MK3S+"
; init_z_rotate = 0
; interface_shells = 0
; ironing = 0
; ironing_acceleration = 0
; ironing_angle = -1
; ironing_flowrate = 15%
; ironing_spacing = 0.1
; ironing_speed = 50%
; ironing_type = top
; layer_gcode = ;AFTER_LAYER_CHANGE\n;[layer_z]\nSET_PRINT_STATS_INFO CURRENT_LAYER={layer_num + 1}
; layer_height = 0.2
; lift_min = 0
; machine_limits_usage = emit_to_gcode
; machine_max_acceleration_e = 5000,5000
; machine_max_acceleration_extruding = 1250,1250
; machine_max_acceleration_retracting = 1250,1250
; machine_max_acceleration_travel = 1500,1250
; machine_max_acceleration_x = 1000,960
; machine_max_acceleration_y = 1000,960
; machine_max_acceleration_z = 200,200
; machine_max_feedrate_e = 120,120
; machine_max_feedrate_x = 200,100
; machine_max_feedrate_y = 200,100
; machine_max_feedrate_z = 12,12
; machine_max_jerk_e = 4.5,4.5
; machine_max_jerk_x = 8,8
; machine_max_jerk_y = 8,8
; machine_max_jerk_z = 0.4,0.4
; machine_min_extruding_rate = 0,0
; machine_min_travel_rate = 0,0
; max_fan_speed = 100
; max_gcode_per_second = 1500
; max_layer_height = 0.25
; max_print_height = 35
; max_print_speed = 200
; max_speed_reduction = 90%
; max_volumetric_speed = 0
; milling_after_z = 200%
; milling_extra_size = 150%
; milling_post_process = 0
; milling_speed = 30
; milling_toolchange_end_gcode = 
; milling_toolchange_start_gcode = 
; min_fan_speed = 100
; min_layer_height = 0.07
; min_length = 0.035
; min_print_speed = 15
; min_skirt_length = 4
; min_width_top_surface = 100%
; mmu_segmented_region_max_width = 0
; model_precision = 0.0001
; no_perimeter_unsupported_algo = none
; notes = 
; nozzle_diameter = 0.4
; only_one_perimeter_first_layer = 0
; only_one_perimeter_top = 1
; only_one_perimeter_top_other_algo = 0
; only_retract_when_crossing_perimeters = 0
; ooze_prevention = 0
; output_filename_format = {input_filename_base}_{layer_height}mm_{filament_type[0]}_{printer_model}_{print_time}.gcode
; over_bridge_flow_ratio = 100%
; overhangs_acceleration = 0
; overhangs_reverse = 0
; overhangs_reverse_threshold = 250%
; overhangs_speed = 100%
; overhangs_width = 75%
; overhangs_width_speed = 55%
; parking_pos_retraction = 92
; pause_print_gcode = M601
; perimeter_acceleration = 800
; perimeter_bonding = 0%
; perimeter_extruder = 1
; perimeter_extrusion_spacing = 0.4
; perimeter_extrusion_width = 
; perimeter_loop = 0
; perimeter_loop_seam = rear
; perimeter_overlap = 100%
; perimeter_round_corners = 0
; perimeter_speed = 45
; perimeters = 2
; physical_printer_settings_id = 
; post_process = 
; print_custom_variables = wall_thickness_lines = 2\n
; print_extrusion_multiplier = 100%
; print_retract_length = -1
; print_retract_lift = -1
; print_settings_id = Puredyne (New)
; print_temperature = 0
; printer_custom_variables = 
; printer_model = MK3S
; printer_notes = Don't remove the following keywords! These keywords are used in the "compatible printer" condition of the print and filament profiles to link the particular print and filament profiles to this printer profile.\nPRINTER_VENDOR_PRUSA3D\nPRINTER_MODEL_MK3\n
; printer_settings_id = Puredyne(New)
; printer_technology = FFF
; printer_variant = 0.4
; printer_vendor = 
; raft_contact_distance = 0.2
; raft_expansion = 1.5
; raft_first_layer_density = 90%
; raft_first_layer_expansion = 3
; raft_layers = 0
; remaining_times = 1
; remaining_times_type = m73
; resolution = 0.0125
; resolution_internal = 0.1
; retract_before_travel = 1
; retract_before_wipe = 0%
; retract_layer_change = 1
; retract_length = 0.8
; retract_length_toolchange = 4
; retract_lift = 0.4
; retract_lift_above = 0
; retract_lift_below = 209
; retract_lift_first_layer = 0
; retract_lift_top = "All surfaces"
; retract_restart_extra = 0
; retract_restart_extra_toolchange = 0
; retract_speed = 35
; seam_angle_cost = 50%
; seam_gap = 15%
; seam_position = cost
; seam_travel_cost = 50%
; silent_mode = 1
; single_extruder_multi_material = 0
; single_extruder_multi_material_priming = 0
; skirt_brim = 0
; skirt_distance = 2
; skirt_distance_from_brim = 1
; skirt_extrusion_width = 130%
; skirt_height = 3
; skirts = 0
; slice_closing_radius = 0.049
; slicing_mode = regular
; slowdown_below_layer_time = 15
; small_perimeter_max_length = 20
; small_perimeter_min_length = 6
; small_perimeter_speed = 25
; solid_fill_pattern = rectilineargapfill
; solid_infill_acceleration = 0
; solid_infill_below_area = 0
; solid_infill_every_layers = 0
; solid_infill_extruder = 1
; solid_infill_extrusion_spacing = 
; solid_infill_extrusion_width = 0.45
; solid_infill_overlap = 100%
; solid_infill_speed = 80
; solid_over_perimeters = 2
; spiral_vase = 0
; standby_temperature_delta = -5
